;THIS IS AN OUTPUT OF JINNIS POST-PROCESSOR FOR REPRAP BY BRUCE
;THIS IS PREPARED TO BE USED ON .CNC
; ------------------------------------------------------------
; Backlash compensation on motor direction changes are applied
; Backlash values on X: 0...0
; Backlash values on Y: 0...0
; Backlash values on Z: 0...0
; - Compensation by Steps Per Unit adjustments
; - Steps Per Unit: M92 X400 Y400 Z400
; ------------------------------------------------------------

;PROGRAM NAME CUTMANYHOLES
;GCODE CREATED ON2024-05-08 AT 21-14-16

;ABOUT THIS POST-PROCESSOR
;   POST MODIFIED 2021-03-17 20-17-38
; - Generated for RepRap firmware 2.x running on Duet3D controller that works in CNC mode
;                 -------------------            ------                          --------
;LIST OF TOOLS IN THIS PROGRAM
;   T1  D=4 CR=0 - Z-MIN=-12 - FLAT END MILL
; Backlash Compensation is ON and can affect tools motion boxs.
; - Check the actual Min/Max at the bottom of this program. (scroll all the way down)

; -+- Program begins here -+-
;DIALOGUEBOX-> ON SCREEN MESSAGE
M291 P"SAFETY FIRST! Wear eye protection. Exercise extreme caution while changing tools." R"CAUTION!" S2
G90
G21
;WHEN USING FUSION FOR PERSONAL USE, THE FEEDRATE OF RAPID
;MOVES IS REDUCED TO MATCH THE FEEDRATE OF CUTTING MOVES,
;WHICH CAN INCREASE MACHINING TIME. UNRESTRICTED RAPID MOVES
;ARE AVAILABLE WITH A FUSION SUBSCRIPTION.

;DIALOGUEBOX-> ON SCREEN MESSAGE
M291 P"Now operating: Bore2" R"CURRENT OPERATION" S0 T5
;TITLE-> OPERATION BORE2
M5
T1
;LOGGING-> THIS IS THE 1ST TOOL - NO CHANGE NEEDED
;LOGGING-> FIRST TOOL SHOULD HAVE BEEN ALREAY LOADED
;DIALOGUEBOX-> ON SCREEN MESSAGE
M291 P"Tool: 1, D:4" R"First Tool Info!" S1 T5
M3 S12000
;LOGGING-> DWELLING FOR SPINDLE RPM CHANGE TO CATCHUP
;DIALOGUEBOX-> ON SCREEN MESSAGE
M291 P"Dwelling for 30 seconds, for the spindle RPM to catch up" R"Dwelling CutManyHoles" S1 T20
G4 P15000
M450 ;LOGGING-> Here used as a harmless stalling command that reports status
G4 P15000
;NO WORKOFFSET IN SETUP. WCS IS NOW 1 GOTTEN FROM POST G54 OPTION
G54
G0 X50.075 Y-125.4
G0 Z50
G1 Z3 F520
G1 Z1.4
G1 X50.083 Z1.322
G1 X50.105 Z1.247
G1 X50.142 Z1.178
G1 X50.192 Z1.117
G1 X50.253 Z1.067
G1 X50.322 Z1.03
G1 X50.397 Z1.008
G1 X50.475 Z1
G1 X50.675
G1 X50.753 Y-125.392
G1 X50.828 Y-125.37
G1 X50.897 Y-125.333
G1 X50.958 Y-125.283
G1 X51.008 Y-125.222
G1 X51.045 Y-125.153
G1 X51.067 Y-125.078
G1 X51.075 Y-125
G1 X51.067 Y-124.869 Z0.996
G1 X51.043 Y-124.74 Z0.992
G1 X51.004 Y-124.615 Z0.989
G1 X50.95 Y-124.496 Z0.985
G1 X50.881 Y-124.384 Z0.981
G1 X50.8 Y-124.281 Z0.977
G1 X50.706 Y-124.19 Z0.974
G1 X50.602 Y-124.11 Z0.97
G1 X50.489 Y-124.043 Z0.966
G1 X50.369 Y-123.99 Z0.962
G1 X50.244 Y-123.953 Z0.959
G1 X50.115 Y-123.931 Z0.955
G1 X49.984 Y-123.925 Z0.951
G1 X49.853 Y-123.935 Z0.947
G1 X49.724 Y-123.961 Z0.944
G1 X49.6 Y-124.002 Z0.94
G1 X49.482 Y-124.058 Z0.936
G1 X49.371 Y-124.128 Z0.932
G1 X49.269 Y-124.211 Z0.929
G1 X49.179 Y-124.306 Z0.925
G1 X49.101 Y-124.411 Z0.921
G1 X49.036 Y-124.525 Z0.917
G1 X48.985 Y-124.646 Z0.914
G1 X48.949 Y-124.772 Z0.91
G1 X48.929 Y-124.902 Z0.906
G1 X48.926 Y-125.033 Z0.902
G1 X48.937 Y-125.163 Z0.899
G1 X48.965 Y-125.291 Z0.895
G1 X49.008 Y-125.415 Z0.891
G1 X49.066 Y-125.533 Z0.887
G1 X49.138 Y-125.642 Z0.884
G1 X49.223 Y-125.743 Z0.88
G1 X49.319 Y-125.832 Z0.876
G1 X49.425 Y-125.908 Z0.872
G1 X49.54 Y-125.972 Z0.869
G1 X49.662 Y-126.02 Z0.865
G1 X49.788 Y-126.054 Z0.861
G1 X49.918 Y-126.072 Z0.857
G1 X50.049 Y-126.074 Z0.854
G1 X50.18 Y-126.06 Z0.85
G1 X50.307 Y-126.03 Z0.846
G1 X50.43 Y-125.985 Z0.842
G1 X50.547 Y-125.925 Z0.839
G1 X50.656 Y-125.852 Z0.835
G1 X50.754 Y-125.766 Z0.831
G1 X50.842 Y-125.668 Z0.827
G1 X50.917 Y-125.561 Z0.824
G1 X50.979 Y-125.445 Z0.82
G1 X51.025 Y-125.323 Z0.816
G1 X51.057 Y-125.196 Z0.812
G1 X51.073 Y-125.065 Z0.809
G1 Y-124.934 Z0.805
G1 X51.057 Y-124.804 Z0.801
G1 X51.025 Y-124.677 Z0.797
G1 X50.978 Y-124.555 Z0.794
G1 X50.917 Y-124.439 Z0.79
G1 X50.842 Y-124.332 Z0.786
G1 X50.754 Y-124.234 Z0.782
G1 X50.655 Y-124.148 Z0.779
G1 X50.547 Y-124.074 Z0.775
G1 X50.43 Y-124.015 Z0.771
G1 X50.307 Y-123.97 Z0.767
G1 X50.179 Y-123.94 Z0.764
G1 X50.049 Y-123.926 Z0.76
G1 X49.918 Y-123.928 Z0.756
G1 X49.788 Y-123.946 Z0.752
G1 X49.661 Y-123.98 Z0.749
G1 X49.54 Y-124.028 Z0.745
G1 X49.425 Y-124.092 Z0.741
G1 X49.319 Y-124.168 Z0.737
G1 X49.223 Y-124.258 Z0.734
G1 X49.138 Y-124.358 Z0.73
G1 X49.066 Y-124.467 Z0.726
G1 X49.008 Y-124.585 Z0.722
G1 X48.965 Y-124.709 Z0.719
G1 X48.937 Y-124.837 Z0.715
G1 X48.925 Y-124.967 Z0.711
G1 X48.93 Y-125.098 Z0.707
G1 X48.949 Y-125.228 Z0.704
G1 X48.985 Y-125.354 Z0.7
G1 X49.036 Y-125.475 Z0.696
G1 X49.101 Y-125.589 Z0.692
G1 X49.179 Y-125.694 Z0.689
G1 X49.269 Y-125.789 Z0.685
G1 X49.371 Y-125.872 Z0.681
G1 X49.482 Y-125.942 Z0.677
G1 X49.6 Y-125.998 Z0.673
G1 X49.725 Y-126.039 Z0.67
G1 X49.853 Y-126.065 Z0.666
G1 X49.984 Y-126.075 Z0.662
G1 X50.115 Y-126.069 Z0.658
G1 X50.244 Y-126.047 Z0.655
G1 X50.37 Y-126.009 Z0.651
G1 X50.49 Y-125.957 Z0.647
G1 X50.602 Y-125.89 Z0.643
G1 X50.706 Y-125.81 Z0.64
G1 X50.8 Y-125.718 Z0.636
G1 X50.881 Y-125.616 Z0.632
G1 X50.95 Y-125.504 Z0.628
G1 X51.004 Y-125.385 Z0.625
G1 X51.043 Y-125.26 Z0.621
G1 X51.067 Y-125.131 Z0.617
G1 X51.075 Y-125 Z0.613
G1 X51.067 Y-124.869 Z0.61
G1 X51.043 Y-124.74 Z0.606
G1 X51.004 Y-124.615 Z0.602
G1 X50.949 Y-124.496 Z0.598
G1 X50.881 Y-124.384 Z0.595
G1 X50.8 Y-124.281 Z0.591
G1 X50.706 Y-124.189 Z0.587
G1 X50.602 Y-124.11 Z0.583
G1 X50.489 Y-124.043 Z0.58
G1 X50.369 Y-123.99 Z0.576
G1 X50.244 Y-123.953 Z0.572
G1 X50.114 Y-123.931 Z0.568
G1 X49.983 Y-123.925 Z0.565
G1 X49.853 Y-123.935 Z0.561
G1 X49.724 Y-123.961 Z0.557
G1 X49.6 Y-124.002 Z0.553
G1 X49.481 Y-124.058 Z0.55
G1 X49.371 Y-124.128 Z0.546
G1 X49.269 Y-124.212 Z0.542
G1 X49.179 Y-124.306 Z0.538
G1 X49.1 Y-124.411 Z0.535
G1 X49.035 Y-124.525 Z0.531
G1 X48.985 Y-124.646 Z0.527
G1 X48.949 Y-124.772 Z0.523
G1 X48.929 Y-124.902 Z0.52
G1 X48.926 Y-125.033 Z0.516
G1 X48.938 Y-125.163 Z0.512
G1 X48.965 Y-125.292 Z0.508
G1 X49.008 Y-125.415 Z0.505
G1 X49.066 Y-125.533 Z0.501
G1 X49.138 Y-125.643 Z0.497
G1 X49.223 Y-125.743 Z0.493
G1 X49.319 Y-125.832 Z0.49
G1 X49.425 Y-125.908 Z0.486
G1 X49.54 Y-125.972 Z0.482
G1 X49.662 Y-126.02 Z0.478
G1 X49.788 Y-126.054 Z0.475
G1 X49.918 Y-126.072 Z0.471
G1 X50.049 Y-126.074 Z0.467
G1 X50.18 Y-126.06 Z0.463
G1 X50.307 Y-126.03 Z0.46
G1 X50.43 Y-125.985 Z0.456
G1 X50.547 Y-125.925 Z0.452
G1 X50.656 Y-125.852 Z0.448
G1 X50.754 Y-125.766 Z0.445
G1 X50.842 Y-125.668 Z0.441
G1 X50.917 Y-125.561 Z0.437
G1 X50.979 Y-125.445 Z0.433
G1 X51.025 Y-125.323 Z0.43
G1 X51.057 Y-125.195 Z0.426
G1 X51.073 Y-125.065 Z0.422
G1 Y-124.934 Z0.418
G1 X51.057 Y-124.804 Z0.415
G1 X51.025 Y-124.677 Z0.411
G1 X50.978 Y-124.555 Z0.407
G1 X50.917 Y-124.439 Z0.403
G1 X50.842 Y-124.331 Z0.4
G1 X50.754 Y-124.234 Z0.396
G1 X50.655 Y-124.148 Z0.392
G1 X50.547 Y-124.074 Z0.388
G1 X50.43 Y-124.015 Z0.385
G1 X50.307 Y-123.97 Z0.381
G1 X50.179 Y-123.94 Z0.377
G1 X50.049 Y-123.926 Z0.373
G1 X49.918 Y-123.928 Z0.37
G1 X49.788 Y-123.946 Z0.366
G1 X49.661 Y-123.98 Z0.362
G1 X49.54 Y-124.029 Z0.358
G1 X49.425 Y-124.092 Z0.355
G1 X49.319 Y-124.169 Z0.351
G1 X49.222 Y-124.258 Z0.347
G1 X49.138 Y-124.358 Z0.343
G1 X49.066 Y-124.467 Z0.339
G1 X49.008 Y-124.585 Z0.336
G1 X48.965 Y-124.709 Z0.332
G1 X48.937 Y-124.837 Z0.328
G1 X48.925 Y-124.967 Z0.324
G1 X48.93 Y-125.098 Z0.321
G1 X48.949 Y-125.228 Z0.317
G1 X48.985 Y-125.354 Z0.313
G1 X49.036 Y-125.475 Z0.309
G1 X49.101 Y-125.589 Z0.306
G1 X49.179 Y-125.694 Z0.302
G1 X49.27 Y-125.789 Z0.298
G1 X49.371 Y-125.872 Z0.294
G1 X49.482 Y-125.942 Z0.291
G1 X49.6 Y-125.998 Z0.287
G1 X49.725 Y-126.039 Z0.283
G1 X49.853 Y-126.065 Z0.279
G1 X49.984 Y-126.075 Z0.276
G1 X50.115 Y-126.069 Z0.272
G1 X50.244 Y-126.047 Z0.268
G1 X50.37 Y-126.009 Z0.264
G1 X50.49 Y-125.957 Z0.261
G1 X50.603 Y-125.89 Z0.257
G1 X50.706 Y-125.81 Z0.253
G1 X50.8 Y-125.718 Z0.249
G1 X50.881 Y-125.616 Z0.246
G1 X50.95 Y-125.504 Z0.242
G1 X51.004 Y-125.384 Z0.238
G1 X51.043 Y-125.259 Z0.234
G1 X51.067 Y-125.131 Z0.231
G1 X51.075 Y-125 Z0.227
G1 X51.067 Y-124.869 Z0.223
G1 X51.043 Y-124.74 Z0.219
G1 X51.004 Y-124.615 Z0.216
G1 X50.949 Y-124.496 Z0.212
G1 X50.881 Y-124.384 Z0.208
G1 X50.799 Y-124.281 Z0.204
G1 X50.706 Y-124.189 Z0.201
G1 X50.602 Y-124.109 Z0.197
G1 X50.489 Y-124.043 Z0.193
G1 X50.369 Y-123.99 Z0.189
G1 X50.243 Y-123.953 Z0.186
G1 X50.114 Y-123.931 Z0.182
G1 X49.983 Y-123.925 Z0.178
G1 X49.853 Y-123.935 Z0.174
G1 X49.724 Y-123.961 Z0.171
G1 X49.6 Y-124.002 Z0.167
G1 X49.481 Y-124.058 Z0.163
G1 X49.371 Y-124.129 Z0.159
G1 X49.269 Y-124.212 Z0.156
G1 X49.179 Y-124.306 Z0.152
G1 X49.1 Y-124.412 Z0.148
G1 X49.035 Y-124.525 Z0.144
G1 X48.985 Y-124.646 Z0.141
G1 X48.949 Y-124.773 Z0.137
G1 X48.929 Y-124.902 Z0.133
G1 X48.926 Y-125.033 Z0.129
G1 X48.938 Y-125.164 Z0.126
G1 X48.965 Y-125.292 Z0.122
G1 X49.009 Y-125.415 Z0.118
G1 X49.066 Y-125.533 Z0.114
G1 X49.138 Y-125.643 Z0.111
G1 X49.223 Y-125.743 Z0.107
G1 X49.319 Y-125.832 Z0.103
G1 X49.425 Y-125.909 Z0.099
G1 X49.54 Y-125.972 Z0.096
G1 X49.662 Y-126.02 Z0.092
G1 X49.789 Y-126.054 Z0.088
G1 X49.918 Y-126.072 Z0.084
G1 X50.05 Y-126.074 Z0.081
G1 X50.18 Y-126.06 Z0.077
G1 X50.307 Y-126.03 Z0.073
G1 X50.431 Y-125.985 Z0.069
G1 X50.547 Y-125.925 Z0.066
G1 X50.656 Y-125.852 Z0.062
G1 X50.755 Y-125.766 Z0.058
G1 X50.842 Y-125.668 Z0.054
G1 X50.917 Y-125.561 Z0.051
G1 X50.979 Y-125.445 Z0.047
G1 X51.025 Y-125.322 Z0.043
G1 X51.057 Y-125.195 Z0.039
G1 X51.073 Y-125.065 Z0.036
G1 Y-124.934 Z0.032
G1 X51.057 Y-124.804 Z0.028
G1 X51.025 Y-124.677 Z0.024
G1 X50.978 Y-124.554 Z0.02
G1 X50.917 Y-124.439 Z0.017
G1 X50.842 Y-124.331 Z0.013
G1 X50.754 Y-124.234 Z0.009
G1 X50.655 Y-124.148 Z0.005
G1 X50.547 Y-124.074 Z0.002
G1 X50.43 Y-124.015 Z-0.002
G1 X50.307 Y-123.97 Z-0.006
G1 X50.179 Y-123.94 Z-0.01
G1 X50.049 Y-123.926 Z-0.013
G1 X49.918 Y-123.928 Z-0.017
G1 X49.788 Y-123.946 Z-0.021
G1 X49.661 Y-123.98 Z-0.025
G1 X49.54 Y-124.029 Z-0.028
G1 X49.425 Y-124.092 Z-0.032
G1 X49.319 Y-124.169 Z-0.036
G1 X49.222 Y-124.258 Z-0.04
G1 X49.138 Y-124.358 Z-0.043
G1 X49.066 Y-124.468 Z-0.047
G1 X49.008 Y-124.585 Z-0.051
G1 X48.965 Y-124.709 Z-0.055
G1 X48.937 Y-124.837 Z-0.058
G1 X48.925 Y-124.968 Z-0.062
G1 X48.93 Y-125.099 Z-0.066
G1 X48.949 Y-125.228 Z-0.07
G1 X48.985 Y-125.354 Z-0.073
G1 X49.036 Y-125.475 Z-0.077
G1 X49.101 Y-125.589 Z-0.081
G1 X49.179 Y-125.694 Z-0.085
G1 X49.27 Y-125.789 Z-0.088
G1 X49.371 Y-125.872 Z-0.092
G1 X49.482 Y-125.942 Z-0.096
G1 X49.6 Y-125.998 Z-0.1
G1 X49.725 Y-126.039 Z-0.103
G1 X49.853 Y-126.065 Z-0.107
G1 X49.984 Y-126.075 Z-0.111
G1 X50.115 Y-126.069 Z-0.115
G1 X50.244 Y-126.047 Z-0.118
G1 X50.37 Y-126.009 Z-0.122
G1 X50.49 Y-125.957 Z-0.126
G1 X50.603 Y-125.89 Z-0.13
G1 X50.707 Y-125.81 Z-0.133
G1 X50.8 Y-125.718 Z-0.137
G1 X50.881 Y-125.615 Z-0.141
G1 X50.95 Y-125.504 Z-0.145
G1 X51.004 Y-125.384 Z-0.148
G1 X51.043 Y-125.259 Z-0.152
G1 X51.067 Y-125.13 Z-0.156
G1 X51.075 Y-125 Z-0.16
G1 X51.067 Y-124.869 Z-0.163
G1 X51.043 Y-124.74 Z-0.167
G1 X51.004 Y-124.615 Z-0.171
G1 X50.949 Y-124.496 Z-0.175
G1 X50.881 Y-124.384 Z-0.178
G1 X50.799 Y-124.281 Z-0.182
G1 X50.706 Y-124.189 Z-0.186
G1 X50.602 Y-124.109 Z-0.19
G1 X50.489 Y-124.043 Z-0.193
G1 X50.369 Y-123.99 Z-0.197
G1 X50.243 Y-123.953 Z-0.201
G1 X50.114 Y-123.931 Z-0.205
G1 X49.983 Y-123.925 Z-0.208
G1 X49.852 Y-123.935 Z-0.212
G1 X49.724 Y-123.961 Z-0.216
G1 X49.6 Y-124.002 Z-0.22
G1 X49.481 Y-124.059 Z-0.223
G1 X49.37 Y-124.129 Z-0.227
G1 X49.269 Y-124.212 Z-0.231
G1 X49.179 Y-124.307 Z-0.235
G1 X49.1 Y-124.412 Z-0.238
G1 X49.035 Y-124.526 Z-0.242
G1 X48.985 Y-124.647 Z-0.246
G1 X48.949 Y-124.773 Z-0.25
G1 X48.929 Y-124.902 Z-0.253
G1 X48.926 Y-125.033 Z-0.257
G1 X48.938 Y-125.164 Z-0.261
G1 X48.965 Y-125.292 Z-0.265
G1 X49.009 Y-125.416 Z-0.268
G1 X49.067 Y-125.533 Z-0.272
G1 X49.138 Y-125.643 Z-0.276
G1 X49.223 Y-125.743 Z-0.28
G1 X49.319 Y-125.832 Z-0.283
G1 X49.426 Y-125.909 Z-0.287
G1 X49.54 Y-125.972 Z-0.291
G1 X49.662 Y-126.02 Z-0.295
G1 X49.789 Y-126.054 Z-0.298
G1 X49.919 Y-126.072 Z-0.302
G1 X50.05 Y-126.074 Z-0.306
G1 X50.18 Y-126.06 Z-0.31
G1 X50.308 Y-126.03 Z-0.314
G1 X50.431 Y-125.985 Z-0.317
G1 X50.547 Y-125.925 Z-0.321
G1 X50.656 Y-125.852 Z-0.325
G1 X50.755 Y-125.766 Z-0.329
G1 X50.842 Y-125.668 Z-0.332
G1 X50.917 Y-125.561 Z-0.336
G1 X50.979 Y-125.445 Z-0.34
G1 X51.026 Y-125.322 Z-0.344
G1 X51.057 Y-125.195 Z-0.347
G1 X51.073 Y-125.065 Z-0.351
G1 Y-124.934 Z-0.355
G1 X51.057 Y-124.804 Z-0.359
G1 X51.025 Y-124.677 Z-0.362
G1 X50.978 Y-124.554 Z-0.366
G1 X50.917 Y-124.439 Z-0.37
G1 X50.842 Y-124.331 Z-0.374
G1 X50.754 Y-124.234 Z-0.377
G1 X50.655 Y-124.148 Z-0.381
G1 X50.546 Y-124.074 Z-0.385
G1 X50.43 Y-124.015 Z-0.389
G1 X50.307 Y-123.97 Z-0.392
G1 X50.179 Y-123.94 Z-0.396
G1 X50.049 Y-123.926 Z-0.4
G1 X49.918 Y-123.928 Z-0.404
G1 X49.788 Y-123.946 Z-0.407
G1 X49.661 Y-123.98 Z-0.411
G1 X49.539 Y-124.029 Z-0.415
G1 X49.425 Y-124.092 Z-0.419
G1 X49.318 Y-124.169 Z-0.422
G1 X49.222 Y-124.258 Z-0.426
G1 X49.138 Y-124.358 Z-0.43
G1 X49.066 Y-124.468 Z-0.434
G1 X49.008 Y-124.585 Z-0.437
G1 X48.965 Y-124.709 Z-0.441
G1 X48.937 Y-124.837 Z-0.445
G1 X48.925 Y-124.968 Z-0.449
G1 X48.93 Y-125.099 Z-0.452
G1 X48.95 Y-125.228 Z-0.456
G1 X48.985 Y-125.354 Z-0.46
G1 X49.036 Y-125.475 Z-0.464
G1 X49.101 Y-125.589 Z-0.467
G1 X49.179 Y-125.694 Z-0.471
G1 X49.27 Y-125.789 Z-0.475
G1 X49.371 Y-125.872 Z-0.479
G1 X49.482 Y-125.942 Z-0.482
G1 X49.601 Y-125.998 Z-0.486
G1 X49.725 Y-126.039 Z-0.49
G1 X49.853 Y-126.065 Z-0.494
G1 X49.984 Y-126.075 Z-0.497
G1 X50.115 Y-126.069 Z-0.501
G1 X50.244 Y-126.047 Z-0.505
G1 X50.37 Y-126.009 Z-0.509
G1 X50.49 Y-125.957 Z-0.512
G1 X50.603 Y-125.89 Z-0.516
G1 X50.707 Y-125.81 Z-0.52
G1 X50.8 Y-125.718 Z-0.524
G1 X50.881 Y-125.615 Z-0.527
G1 X50.95 Y-125.504 Z-0.531
G1 X51.004 Y-125.384 Z-0.535
G1 X51.043 Y-125.259 Z-0.539
G1 X51.067 Y-125.13 Z-0.542
G1 X51.075 Y-124.999 Z-0.546
G1 X51.067 Y-124.869 Z-0.55
G1 X51.043 Y-124.74 Z-0.554
G1 X51.004 Y-124.615 Z-0.557
G1 X50.949 Y-124.495 Z-0.561
G1 X50.881 Y-124.384 Z-0.565
G1 X50.799 Y-124.281 Z-0.569
G1 X50.706 Y-124.189 Z-0.572
G1 X50.602 Y-124.109 Z-0.576
G1 X50.489 Y-124.043 Z-0.58
G1 X50.369 Y-123.99 Z-0.584
G1 X50.243 Y-123.953 Z-0.587
G1 X50.114 Y-123.931 Z-0.591
G1 X49.983 Y-123.925 Z-0.595
G1 X49.852 Y-123.935 Z-0.599
G1 X49.724 Y-123.961 Z-0.602
G1 X49.599 Y-124.002 Z-0.606
G1 X49.481 Y-124.059 Z-0.61
G1 X49.37 Y-124.129 Z-0.614
G1 X49.269 Y-124.212 Z-0.617
G1 X49.178 Y-124.307 Z-0.621
G1 X49.1 Y-124.412 Z-0.625
G1 X49.035 Y-124.526 Z-0.629
G1 X48.985 Y-124.647 Z-0.633
G1 X48.949 Y-124.773 Z-0.636
G1 X48.929 Y-124.902 Z-0.64
G1 X48.926 Y-125.033 Z-0.644
G1 X48.938 Y-125.164 Z-0.648
G1 X48.965 Y-125.292 Z-0.651
G1 X49.009 Y-125.416 Z-0.655
G1 X49.067 Y-125.533 Z-0.659
G1 X49.138 Y-125.643 Z-0.663
G1 X49.223 Y-125.743 Z-0.666
G1 X49.319 Y-125.832 Z-0.67
G1 X49.426 Y-125.909 Z-0.674
G1 X49.541 Y-125.972 Z-0.678
G1 X49.662 Y-126.021 Z-0.681
G1 X49.789 Y-126.054 Z-0.685
G1 X49.919 Y-126.072 Z-0.689
G1 X50.05 Y-126.074 Z-0.693
G1 X50.18 Y-126.06 Z-0.696
G1 X50.308 Y-126.03 Z-0.7
G1 X50.431 Y-125.985 Z-0.704
G1 X50.548 Y-125.925 Z-0.708
G1 X50.656 Y-125.852 Z-0.711
G1 X50.755 Y-125.765 Z-0.715
G1 X50.842 Y-125.668 Z-0.719
G1 X50.917 Y-125.56 Z-0.723
G1 X50.979 Y-125.445 Z-0.726
G1 X51.026 Y-125.322 Z-0.73
G1 X51.057 Y-125.195 Z-0.734
G1 X51.073 Y-125.065 Z-0.738
G1 Y-124.934 Z-0.741
G1 X51.057 Y-124.804 Z-0.745
G1 X51.025 Y-124.677 Z-0.749
G1 X50.978 Y-124.554 Z-0.753
G1 X50.917 Y-124.438 Z-0.756
G1 X50.842 Y-124.331 Z-0.76
G1 X50.754 Y-124.234 Z-0.764
G1 X50.655 Y-124.148 Z-0.768
G1 X50.546 Y-124.074 Z-0.771
G1 X50.43 Y-124.015 Z-0.775
G1 X50.306 Y-123.97 Z-0.779
G1 X50.179 Y-123.94 Z-0.783
G1 X50.048 Y-123.926 Z-0.786
G1 X49.917 Y-123.928 Z-0.79
G1 X49.788 Y-123.946 Z-0.794
G1 X49.661 Y-123.98 Z-0.798
G1 X49.539 Y-124.029 Z-0.801
G1 X49.425 Y-124.092 Z-0.805
G1 X49.318 Y-124.169 Z-0.809
G1 X49.222 Y-124.258 Z-0.813
G1 X49.138 Y-124.358 Z-0.816
G1 X49.066 Y-124.468 Z-0.82
G1 X49.008 Y-124.585 Z-0.824
G1 X48.965 Y-124.709 Z-0.828
G1 X48.937 Y-124.837 Z-0.831
G1 X48.925 Y-124.968 Z-0.835
G1 X48.93 Y-125.099 Z-0.839
G1 X48.95 Y-125.228 Z-0.843
G1 X48.985 Y-125.355 Z-0.846
G1 X49.036 Y-125.475 Z-0.85
G1 X49.101 Y-125.589 Z-0.854
G1 X49.179 Y-125.694 Z-0.858
G1 X49.27 Y-125.789 Z-0.861
G1 X49.371 Y-125.872 Z-0.865
G1 X49.482 Y-125.942 Z-0.869
G1 X49.601 Y-125.998 Z-0.873
G1 X49.725 Y-126.039 Z-0.876
G1 X49.854 Y-126.065 Z-0.88
G1 X49.984 Y-126.075 Z-0.884
G1 X50.115 Y-126.069 Z-0.888
G1 X50.244 Y-126.047 Z-0.891
G1 X50.37 Y-126.009 Z-0.895
G1 X50.49 Y-125.957 Z-0.899
G1 X50.603 Y-125.89 Z-0.903
G1 X50.707 Y-125.81 Z-0.906
G1 X50.8 Y-125.718 Z-0.91
G1 X50.882 Y-125.615 Z-0.914
G1 X50.95 Y-125.503 Z-0.918
G1 X51.004 Y-125.384 Z-0.921
G1 X51.043 Y-125.259 Z-0.925
G1 X51.067 Y-125.13 Z-0.929
G1 X51.075 Y-124.999 Z-0.933
G1 X51.067 Y-124.868 Z-0.936
G1 X51.043 Y-124.74 Z-0.94
G1 X51.004 Y-124.615 Z-0.944
G1 X50.949 Y-124.495 Z-0.948
G1 X50.881 Y-124.384 Z-0.952
G1 X50.799 Y-124.281 Z-0.955
G1 X50.706 Y-124.189 Z-0.959
G1 X50.602 Y-124.109 Z-0.963
G1 X50.489 Y-124.043 Z-0.967
G1 X50.369 Y-123.99 Z-0.97
G1 X50.243 Y-123.953 Z-0.974
G1 X50.114 Y-123.931 Z-0.978
G1 X49.983 Y-123.925 Z-0.982
G1 X49.852 Y-123.935 Z-0.985
G1 X49.724 Y-123.961 Z-0.989
G1 X49.599 Y-124.002 Z-0.993
G1 X49.481 Y-124.059 Z-0.997
G1 X49.37 Y-124.129 Z-1
G1 X49.269 Y-124.212 Z-1.004
G1 X49.178 Y-124.307 Z-1.008
G1 X49.1 Y-124.412 Z-1.012
G1 X49.035 Y-124.526 Z-1.015
G1 X48.985 Y-124.647 Z-1.019
G1 X48.949 Y-124.773 Z-1.023
G1 X48.929 Y-124.903 Z-1.027
G1 X48.926 Y-125.034 Z-1.03
G1 X48.938 Y-125.164 Z-1.034
G1 X48.965 Y-125.292 Z-1.038
G1 X49.009 Y-125.416 Z-1.042
G1 X49.067 Y-125.533 Z-1.045
G1 X49.139 Y-125.643 Z-1.049
G1 X49.223 Y-125.743 Z-1.053
G1 X49.319 Y-125.832 Z-1.057
G1 X49.426 Y-125.909 Z-1.06
G1 X49.541 Y-125.972 Z-1.064
G1 X49.662 Y-126.021 Z-1.068
G1 X49.789 Y-126.054 Z-1.072
G1 X49.919 Y-126.072 Z-1.075
G1 X50.05 Y-126.074 Z-1.079
G1 X50.18 Y-126.06 Z-1.083
G1 X50.308 Y-126.03 Z-1.087
G1 X50.431 Y-125.985 Z-1.09
G1 X50.548 Y-125.925 Z-1.094
G1 X50.656 Y-125.852 Z-1.098
G1 X50.755 Y-125.765 Z-1.102
G1 X50.842 Y-125.668 Z-1.105
G1 X50.917 Y-125.56 Z-1.109
G1 X50.979 Y-125.444 Z-1.113
G1 X51.026 Y-125.322 Z-1.117
G1 X51.057 Y-125.195 Z-1.12
G1 X51.073 Y-125.065 Z-1.124
G1 Y-124.934 Z-1.128
G1 X51.057 Y-124.804 Z-1.132
G1 X51.025 Y-124.676 Z-1.135
G1 X50.978 Y-124.554 Z-1.139
G1 X50.917 Y-124.438 Z-1.143
G1 X50.841 Y-124.331 Z-1.147
G1 X50.754 Y-124.234 Z-1.15
G1 X50.655 Y-124.147 Z-1.154
G1 X50.546 Y-124.074 Z-1.158
G1 X50.429 Y-124.015 Z-1.162
G1 X50.306 Y-123.97 Z-1.165
G1 X50.179 Y-123.94 Z-1.169
G1 X50.048 Y-123.926 Z-1.173
G1 X49.917 Y-123.928 Z-1.177
G1 X49.787 Y-123.946 Z-1.18
G1 X49.661 Y-123.98 Z-1.184
G1 X49.539 Y-124.029 Z-1.188
G1 X49.424 Y-124.092 Z-1.192
G1 X49.318 Y-124.169 Z-1.195
G1 X49.222 Y-124.258 Z-1.199
G1 X49.138 Y-124.358 Z-1.203
G1 X49.066 Y-124.468 Z-1.207
G1 X49.008 Y-124.586 Z-1.21
G1 X48.965 Y-124.709 Z-1.214
G1 X48.937 Y-124.838 Z-1.218
G1 X48.925 Y-124.968 Z-1.222
G1 X48.93 Y-125.099 Z-1.225
G1 X48.95 Y-125.229 Z-1.229
G1 X48.985 Y-125.355 Z-1.233
G1 X49.036 Y-125.476 Z-1.237
G1 X49.101 Y-125.589 Z-1.24
G1 X49.179 Y-125.694 Z-1.244
G1 X49.27 Y-125.789 Z-1.248
G1 X49.371 Y-125.872 Z-1.252
G1 X49.482 Y-125.942 Z-1.255
G1 X49.601 Y-125.998 Z-1.259
G1 X49.725 Y-126.039 Z-1.263
G1 X49.854 Y-126.065 Z-1.267
G1 X49.984 Y-126.075 Z-1.27
G1 X50.115 Y-126.069 Z-1.274
G1 X50.245 Y-126.047 Z-1.278
G1 X50.37 Y-126.009 Z-1.282
G1 X50.49 Y-125.957 Z-1.286
G1 X50.603 Y-125.89 Z-1.289
G1 X50.707 Y-125.81 Z-1.293
G1 X50.8 Y-125.718 Z-1.297
G1 X50.882 Y-125.615 Z-1.301
G1 X50.95 Y-125.503 Z-1.304
G1 X51.004 Y-125.384 Z-1.308
G1 X51.043 Y-125.259 Z-1.312
G1 X51.067 Y-125.13 Z-1.316
G1 X51.075 Y-124.999 Z-1.319
G1 X51.067 Y-124.868 Z-1.323
G1 X51.043 Y-124.739 Z-1.327
G1 X51.003 Y-124.614 Z-1.331
G1 X50.949 Y-124.495 Z-1.334
G1 X50.881 Y-124.383 Z-1.338
G1 X50.799 Y-124.281 Z-1.342
G1 X50.706 Y-124.189 Z-1.346
G1 X50.602 Y-124.109 Z-1.349
G1 X50.489 Y-124.042 Z-1.353
G1 X50.369 Y-123.99 Z-1.357
G1 X50.243 Y-123.953 Z-1.361
G1 X50.114 Y-123.931 Z-1.364
G1 X49.983 Y-123.925 Z-1.368
G1 X49.852 Y-123.935 Z-1.372
G1 X49.724 Y-123.961 Z-1.376
G1 X49.599 Y-124.003 Z-1.379
G1 X49.481 Y-124.059 Z-1.383
G1 X49.37 Y-124.129 Z-1.387
G1 X49.269 Y-124.212 Z-1.391
G1 X49.178 Y-124.307 Z-1.394
G1 X49.1 Y-124.412 Z-1.398
G1 X49.035 Y-124.526 Z-1.402
G1 X48.985 Y-124.647 Z-1.406
G1 X48.949 Y-124.773 Z-1.409
G1 X48.929 Y-124.903 Z-1.413
G1 X48.926 Y-125.034 Z-1.417
G1 X48.938 Y-125.164 Z-1.421
G1 X48.966 Y-125.292 Z-1.424
G1 X49.009 Y-125.416 Z-1.428
G1 X49.067 Y-125.534 Z-1.432
G1 X49.139 Y-125.643 Z-1.436
G1 X49.223 Y-125.743 Z-1.439
G1 X49.32 Y-125.832 Z-1.443
G1 X49.426 Y-125.909 Z-1.447
G1 X49.541 Y-125.972 Z-1.451
G1 X49.662 Y-126.021 Z-1.454
G1 X49.789 Y-126.054 Z-1.458
G1 X49.919 Y-126.072 Z-1.462
G1 X50.05 Y-126.074 Z-1.466
G1 X50.18 Y-126.06 Z-1.469
G1 X50.308 Y-126.03 Z-1.473
G1 X50.431 Y-125.985 Z-1.477
G1 X50.548 Y-125.925 Z-1.481
G1 X50.656 Y-125.851 Z-1.484
G1 X50.755 Y-125.765 Z-1.488
G1 X50.843 Y-125.668 Z-1.492
G1 X50.918 Y-125.56 Z-1.496
G1 X50.979 Y-125.444 Z-1.499
G1 X51.026 Y-125.322 Z-1.503
G1 X51.057 Y-125.195 Z-1.507
G1 X51.073 Y-125.065 Z-1.511
G1 Y-124.933 Z-1.514
G1 X51.057 Y-124.803 Z-1.518
G1 X51.025 Y-124.676 Z-1.522
G1 X50.978 Y-124.554 Z-1.526
G1 X50.917 Y-124.438 Z-1.529
G1 X50.841 Y-124.331 Z-1.533
G1 X50.754 Y-124.233 Z-1.537
G1 X50.655 Y-124.147 Z-1.541
G1 X50.546 Y-124.074 Z-1.544
G1 X50.429 Y-124.014 Z-1.548
G1 X50.306 Y-123.97 Z-1.552
G1 X50.179 Y-123.94 Z-1.556
G1 X50.048 Y-123.926 Z-1.559
G1 X49.917 Y-123.928 Z-1.563
G1 X49.787 Y-123.946 Z-1.567
G1 X49.661 Y-123.98 Z-1.571
G1 X49.539 Y-124.029 Z-1.574
G1 X49.424 Y-124.092 Z-1.578
G1 X49.318 Y-124.169 Z-1.582
G1 X49.222 Y-124.258 Z-1.586
G1 X49.137 Y-124.358 Z-1.589
G1 X49.066 Y-124.468 Z-1.593
G1 X49.008 Y-124.586 Z-1.597
G1 X48.965 Y-124.71 Z-1.601
G1 X48.937 Y-124.838 Z-1.605
G1 X48.925 Y-124.968 Z-1.608
G1 X48.93 Y-125.099 Z-1.612
G1 X48.95 Y-125.229 Z-1.616
G1 X48.985 Y-125.355 Z-1.62
G1 X49.036 Y-125.476 Z-1.623
G1 X49.101 Y-125.59 Z-1.627
G1 X49.18 Y-125.695 Z-1.631
G1 X49.27 Y-125.789 Z-1.635
G1 X49.372 Y-125.872 Z-1.638
G1 X49.482 Y-125.942 Z-1.642
G1 X49.601 Y-125.998 Z-1.646
G1 X49.725 Y-126.039 Z-1.65
G1 X49.854 Y-126.065 Z-1.653
G1 X49.985 Y-126.075 Z-1.657
G1 X50.116 Y-126.069 Z-1.661
G1 X50.245 Y-126.047 Z-1.665
G1 X50.37 Y-126.009 Z-1.668
G1 X50.49 Y-125.957 Z-1.672
G1 X50.603 Y-125.89 Z-1.676
G1 X50.707 Y-125.81 Z-1.68
G1 X50.8 Y-125.718 Z-1.683
G1 X50.882 Y-125.615 Z-1.687
G1 X50.95 Y-125.503 Z-1.691
G1 X51.004 Y-125.384 Z-1.695
G1 X51.043 Y-125.259 Z-1.698
G1 X51.067 Y-125.13 Z-1.702
G1 X51.075 Y-124.999 Z-1.706
G1 X51.067 Y-124.868 Z-1.71
G1 X51.043 Y-124.739 Z-1.713
G1 X51.003 Y-124.614 Z-1.717
G1 X50.949 Y-124.495 Z-1.721
G1 X50.881 Y-124.383 Z-1.725
G1 X50.799 Y-124.281 Z-1.728
G1 X50.705 Y-124.189 Z-1.732
G1 X50.601 Y-124.109 Z-1.736
G1 X50.489 Y-124.042 Z-1.74
G1 X50.368 Y-123.99 Z-1.743
G1 X50.243 Y-123.953 Z-1.747
G1 X50.113 Y-123.931 Z-1.751
G1 X49.983 Y-123.925 Z-1.755
G1 X49.852 Y-123.935 Z-1.758
G1 X49.723 Y-123.961 Z-1.762
G1 X49.599 Y-124.003 Z-1.766
G1 X49.481 Y-124.059 Z-1.77
G1 X49.37 Y-124.129 Z-1.773
G1 X49.269 Y-124.212 Z-1.777
G1 X49.178 Y-124.307 Z-1.781
G1 X49.1 Y-124.412 Z-1.785
G1 X49.035 Y-124.526 Z-1.788
G1 X48.985 Y-124.647 Z-1.792
G1 X48.949 Y-124.773 Z-1.796
G1 X48.929 Y-124.903 Z-1.8
G1 X48.926 Y-125.034 Z-1.803
G1 X48.938 Y-125.164 Z-1.807
G1 X48.966 Y-125.292 Z-1.811
G1 X49.009 Y-125.416 Z-1.815
G1 X49.067 Y-125.534 Z-1.818
G1 X49.139 Y-125.643 Z-1.822
G1 X49.223 Y-125.743 Z-1.826
G1 X49.32 Y-125.832 Z-1.83
G1 X49.426 Y-125.909 Z-1.833
G1 X49.541 Y-125.972 Z-1.837
G1 X49.663 Y-126.021 Z-1.841
G1 X49.789 Y-126.054 Z-1.845
G1 X49.919 Y-126.072 Z-1.848
G1 X50.05 Y-126.074 Z-1.852
G1 X50.181 Y-126.06 Z-1.856
G1 X50.308 Y-126.03 Z-1.86
G1 X50.431 Y-125.985 Z-1.863
G1 X50.548 Y-125.925 Z-1.867
G1 X50.656 Y-125.851 Z-1.871
G1 X50.755 Y-125.765 Z-1.875
G1 X50.843 Y-125.668 Z-1.878
G1 X50.918 Y-125.56 Z-1.882
G1 X50.979 Y-125.444 Z-1.886
G1 X51.026 Y-125.322 Z-1.89
G1 X51.057 Y-125.195 Z-1.893
G1 X51.073 Y-125.064 Z-1.897
G1 Y-124.933 Z-1.901
G1 X51.057 Y-124.803 Z-1.905
G1 X51.025 Y-124.676 Z-1.908
G1 X50.978 Y-124.554 Z-1.912
G1 X50.916 Y-124.438 Z-1.916
G1 X50.841 Y-124.331 Z-1.92
G1 X50.754 Y-124.233 Z-1.923
G1 X50.655 Y-124.147 Z-1.927
G1 X50.546 Y-124.074 Z-1.931
G1 X50.429 Y-124.014 Z-1.935
G1 X50.306 Y-123.969 Z-1.939
G1 X50.178 Y-123.94 Z-1.942
G1 X50.048 Y-123.926 Z-1.946
G1 X49.917 Y-123.928 Z-1.95
G1 X49.787 Y-123.946 Z-1.954
G1 X49.66 Y-123.98 Z-1.957
G1 X49.539 Y-124.029 Z-1.961
G1 X49.424 Y-124.092 Z-1.965
G1 X49.318 Y-124.169 Z-1.969
G1 X49.222 Y-124.258 Z-1.972
G1 X49.137 Y-124.358 Z-1.976
G1 X49.066 Y-124.468 Z-1.98
G1 X49.008 Y-124.586 Z-1.984
G1 X48.965 Y-124.71 Z-1.987
G1 X48.937 Y-124.838 Z-1.991
G1 X48.925 Y-124.968 Z-1.995
G1 X48.93 Y-125.099 Z-1.999
G1 X48.95 Y-125.229 Z-2.002
G1 X48.985 Y-125.355 Z-2.006
G1 X49.036 Y-125.476 Z-2.01
G1 X49.101 Y-125.59 Z-2.014
G1 X49.18 Y-125.695 Z-2.017
G1 X49.27 Y-125.789 Z-2.021
G1 X49.372 Y-125.872 Z-2.025
G1 X49.483 Y-125.942 Z-2.029
G1 X49.601 Y-125.998 Z-2.032
G1 X49.726 Y-126.039 Z-2.036
G1 X49.854 Y-126.065 Z-2.04
G1 X49.985 Y-126.075 Z-2.044
G1 X50.116 Y-126.069 Z-2.047
G1 X50.245 Y-126.047 Z-2.051
G1 X50.37 Y-126.009 Z-2.055
G1 X50.491 Y-125.957 Z-2.059
G1 X50.603 Y-125.89 Z-2.062
G1 X50.707 Y-125.81 Z-2.066
G1 X50.8 Y-125.718 Z-2.07
G1 X50.882 Y-125.615 Z-2.074
G1 X50.95 Y-125.503 Z-2.077
G1 X51.004 Y-125.384 Z-2.081
G1 X51.043 Y-125.259 Z-2.085
G1 X51.067 Y-125.13 Z-2.089
G1 X51.075 Y-124.999 Z-2.092
G1 X51.067 Y-124.868 Z-2.096
G1 X51.043 Y-124.739 Z-2.1
G1 X51.003 Y-124.614 Z-2.104
G1 X50.949 Y-124.495 Z-2.107
G1 X50.88 Y-124.383 Z-2.111
G1 X50.799 Y-124.281 Z-2.115
G1 X50.705 Y-124.189 Z-2.119
G1 X50.601 Y-124.109 Z-2.122
G1 X50.488 Y-124.042 Z-2.126
G1 X50.368 Y-123.99 Z-2.13
G1 X50.243 Y-123.953 Z-2.134
G1 X50.113 Y-123.931 Z-2.137
G1 X49.982 Y-123.925 Z-2.141
G1 X49.852 Y-123.935 Z-2.145
G1 X49.723 Y-123.961 Z-2.149
G1 X49.599 Y-124.003 Z-2.152
G1 X49.48 Y-124.059 Z-2.156
G1 X49.37 Y-124.129 Z-2.16
G1 X49.268 Y-124.212 Z-2.164
G1 X49.178 Y-124.307 Z-2.167
G1 X49.1 Y-124.412 Z-2.171
G1 X49.035 Y-124.526 Z-2.175
G1 X48.985 Y-124.647 Z-2.179
G1 X48.949 Y-124.773 Z-2.182
G1 X48.929 Y-124.903 Z-2.186
G1 X48.926 Y-125.034 Z-2.19
G1 X48.938 Y-125.165 Z-2.194
G1 X48.966 Y-125.293 Z-2.197
G1 X49.009 Y-125.416 Z-2.201
G1 X49.067 Y-125.534 Z-2.205
G1 X49.139 Y-125.643 Z-2.209
G1 X49.224 Y-125.743 Z-2.212
G1 X49.32 Y-125.832 Z-2.216
G1 X49.426 Y-125.909 Z-2.22
G1 X49.541 Y-125.972 Z-2.224
G1 X49.663 Y-126.021 Z-2.227
G1 X49.789 Y-126.054 Z-2.231
G1 X49.919 Y-126.072 Z-2.235
G1 X50.05 Y-126.074 Z-2.239
G1 X50.181 Y-126.06 Z-2.242
G1 X50.308 Y-126.03 Z-2.246
G1 X50.431 Y-125.985 Z-2.25
G1 X50.548 Y-125.925 Z-2.254
G1 X50.656 Y-125.851 Z-2.258
G1 X50.755 Y-125.765 Z-2.261
G1 X50.843 Y-125.667 Z-2.265
G1 X50.918 Y-125.56 Z-2.269
G1 X50.979 Y-125.444 Z-2.273
G1 X51.026 Y-125.322 Z-2.276
G1 X51.057 Y-125.194 Z-2.28
G1 X51.073 Y-125.064 Z-2.284
G1 Y-124.933 Z-2.288
G1 X51.057 Y-124.803 Z-2.291
G1 X51.025 Y-124.676 Z-2.295
G1 X50.978 Y-124.554 Z-2.299
G1 X50.916 Y-124.438 Z-2.303
G1 X50.841 Y-124.331 Z-2.306
G1 X50.753 Y-124.233 Z-2.31
G1 X50.654 Y-124.147 Z-2.314
G1 X50.546 Y-124.074 Z-2.318
G1 X50.429 Y-124.014 Z-2.321
G1 X50.306 Y-123.969 Z-2.325
G1 X50.178 Y-123.94 Z-2.329
G1 X50.048 Y-123.926 Z-2.333
G1 X49.917 Y-123.928 Z-2.336
G1 X49.787 Y-123.946 Z-2.34
G1 X49.66 Y-123.98 Z-2.344
G1 X49.539 Y-124.029 Z-2.348
G1 X49.424 Y-124.092 Z-2.351
G1 X49.318 Y-124.169 Z-2.355
G1 X49.222 Y-124.258 Z-2.359
G1 X49.137 Y-124.359 Z-2.363
G1 X49.066 Y-124.468 Z-2.366
G1 X49.008 Y-124.586 Z-2.37
G1 X48.965 Y-124.71 Z-2.374
G1 X48.937 Y-124.838 Z-2.378
G1 X48.925 Y-124.969 Z-2.381
G1 X48.93 Y-125.1 Z-2.385
G1 X48.95 Y-125.229 Z-2.389
G1 X48.985 Y-125.355 Z-2.393
G1 X49.036 Y-125.476 Z-2.396
G1 X49.101 Y-125.59 Z-2.4
G1 X49.18 Y-125.695 Z-2.404
G1 X49.27 Y-125.789 Z-2.408
G1 X49.372 Y-125.872 Z-2.411
G1 X49.483 Y-125.942 Z-2.415
G1 X49.601 Y-125.998 Z-2.419
G1 X49.726 Y-126.039 Z-2.423
G1 X49.854 Y-126.065 Z-2.426
G1 X49.985 Y-126.075 Z-2.43
G1 X50.116 Y-126.069 Z-2.434
G1 X50.245 Y-126.047 Z-2.438
G1 X50.371 Y-126.009 Z-2.441
G1 X50.491 Y-125.956 Z-2.445
G1 X50.603 Y-125.89 Z-2.449
G1 X50.707 Y-125.81 Z-2.453
G1 X50.801 Y-125.718 Z-2.456
G1 X50.882 Y-125.615 Z-2.46
G1 X50.95 Y-125.503 Z-2.464
G1 X51.004 Y-125.383 Z-2.468
G1 X51.043 Y-125.258 Z-2.471
G1 X51.067 Y-125.129 Z-2.475
G1 X51.075 Y-124.999 Z-2.479
G1 X51.067 Y-124.868 Z-2.483
G1 X51.043 Y-124.739 Z-2.486
G1 X51.003 Y-124.614 Z-2.49
G1 X50.949 Y-124.495 Z-2.494
G1 X50.88 Y-124.383 Z-2.498
G1 X50.799 Y-124.28 Z-2.501
G1 X50.705 Y-124.189 Z-2.505
G1 X50.601 Y-124.109 Z-2.509
G1 X50.488 Y-124.042 Z-2.513
G1 X50.368 Y-123.99 Z-2.516
G1 X50.242 Y-123.953 Z-2.52
G1 X50.113 Y-123.931 Z-2.524
G1 X49.982 Y-123.925 Z-2.528
G1 X49.852 Y-123.935 Z-2.531
G1 X49.723 Y-123.961 Z-2.535
G1 X49.599 Y-124.003 Z-2.539
G1 X49.48 Y-124.059 Z-2.543
G1 X49.37 Y-124.129 Z-2.546
G1 X49.268 Y-124.212 Z-2.55
G1 X49.178 Y-124.307 Z-2.554
G1 X49.1 Y-124.412 Z-2.558
G1 X49.035 Y-124.526 Z-2.561
G1 X48.984 Y-124.647 Z-2.565
G1 X48.949 Y-124.774 Z-2.569
G1 X48.929 Y-124.903 Z-2.573
G1 X48.926 Y-125.034 Z-2.577
G1 X48.938 Y-125.165 Z-2.58
G1 X48.966 Y-125.293 Z-2.584
G1 X49.009 Y-125.416 Z-2.588
G1 X49.067 Y-125.534 Z-2.592
G1 X49.139 Y-125.644 Z-2.595
G1 X49.224 Y-125.744 Z-2.599
G1 X49.32 Y-125.833 Z-2.603
G1 X49.426 Y-125.909 Z-2.607
G1 X49.541 Y-125.972 Z-2.61
G1 X49.663 Y-126.021 Z-2.614
G1 X49.79 Y-126.054 Z-2.618
G1 X49.92 Y-126.072 Z-2.622
G1 X50.051 Y-126.074 Z-2.625
G1 X50.181 Y-126.06 Z-2.629
G1 X50.308 Y-126.03 Z-2.633
G1 X50.432 Y-125.985 Z-2.637
G1 X50.548 Y-125.925 Z-2.64
G1 X50.657 Y-125.851 Z-2.644
G1 X50.755 Y-125.765 Z-2.648
G1 X50.843 Y-125.667 Z-2.652
G1 X50.918 Y-125.56 Z-2.655
G1 X50.979 Y-125.444 Z-2.659
G1 X51.026 Y-125.321 Z-2.663
G1 X51.057 Y-125.194 Z-2.667
G1 X51.073 Y-125.064 Z-2.67
G1 Y-124.933 Z-2.674
G1 X51.057 Y-124.803 Z-2.678
G1 X51.025 Y-124.676 Z-2.682
G1 X50.978 Y-124.553 Z-2.685
G1 X50.916 Y-124.438 Z-2.689
G1 X50.841 Y-124.33 Z-2.693
G1 X50.753 Y-124.233 Z-2.697
G1 X50.654 Y-124.147 Z-2.7
G1 X50.546 Y-124.074 Z-2.704
G1 X50.429 Y-124.014 Z-2.708
G1 X50.306 Y-123.969 Z-2.712
G1 X50.178 Y-123.94 Z-2.715
G1 X50.048 Y-123.926 Z-2.719
G1 X49.917 Y-123.928 Z-2.723
G1 X49.787 Y-123.946 Z-2.727
G1 X49.66 Y-123.98 Z-2.73
G1 X49.539 Y-124.029 Z-2.734
G1 X49.424 Y-124.092 Z-2.738
G1 X49.318 Y-124.169 Z-2.742
G1 X49.222 Y-124.258 Z-2.745
G1 X49.137 Y-124.359 Z-2.749
G1 X49.066 Y-124.468 Z-2.753
G1 X49.008 Y-124.586 Z-2.757
G1 X48.965 Y-124.71 Z-2.76
G1 X48.937 Y-124.838 Z-2.764
G1 X48.925 Y-124.969 Z-2.768
G1 X48.93 Y-125.1 Z-2.772
G1 X48.95 Y-125.229 Z-2.775
G1 X48.985 Y-125.355 Z-2.779
G1 X49.036 Y-125.476 Z-2.783
G1 X49.101 Y-125.59 Z-2.787
G1 X49.18 Y-125.695 Z-2.79
G1 X49.27 Y-125.79 Z-2.794
G1 X49.372 Y-125.872 Z-2.798
G1 X49.483 Y-125.942 Z-2.802
G1 X49.601 Y-125.998 Z-2.805
G1 X49.726 Y-126.039 Z-2.809
G1 X49.854 Y-126.065 Z-2.813
G1 X49.985 Y-126.075 Z-2.817
G1 X50.116 Y-126.069 Z-2.82
G1 X50.245 Y-126.047 Z-2.824
G1 X50.371 Y-126.009 Z-2.828
G1 X50.491 Y-125.956 Z-2.832
G1 X50.604 Y-125.89 Z-2.835
G1 X50.707 Y-125.81 Z-2.839
G1 X50.801 Y-125.717 Z-2.843
G1 X50.882 Y-125.615 Z-2.847
G1 X50.95 Y-125.503 Z-2.85
G1 X51.004 Y-125.383 Z-2.854
G1 X51.044 Y-125.258 Z-2.858
G1 X51.067 Y-125.129 Z-2.862
G1 X51.075 Y-124.999 Z-2.865
G1 X51.067 Y-124.868 Z-2.869
G1 X51.043 Y-124.739 Z-2.873
G1 X51.003 Y-124.614 Z-2.877
G1 X50.949 Y-124.495 Z-2.88
G1 X50.88 Y-124.383 Z-2.884
G1 X50.799 Y-124.28 Z-2.888
G1 X50.705 Y-124.189 Z-2.892
G1 X50.601 Y-124.109 Z-2.895
G1 X50.488 Y-124.042 Z-2.899
G1 X50.368 Y-123.99 Z-2.903
G1 X50.242 Y-123.953 Z-2.907
G1 X50.113 Y-123.931 Z-2.911
G1 X49.982 Y-123.925 Z-2.914
G1 X49.851 Y-123.935 Z-2.918
G1 X49.723 Y-123.961 Z-2.922
G1 X49.599 Y-124.003 Z-2.926
G1 X49.48 Y-124.059 Z-2.929
G1 X49.37 Y-124.129 Z-2.933
G1 X49.268 Y-124.212 Z-2.937
G1 X49.178 Y-124.307 Z-2.941
G1 X49.1 Y-124.413 Z-2.944
G1 X49.035 Y-124.527 Z-2.948
G1 X48.984 Y-124.647 Z-2.952
G1 X48.949 Y-124.774 Z-2.956
G1 X48.929 Y-124.903 Z-2.959
G1 X48.926 Y-125.034 Z-2.963
G1 X48.938 Y-125.165 Z-2.967
G1 X48.966 Y-125.293 Z-2.971
G1 X49.009 Y-125.417 Z-2.974
G1 X49.067 Y-125.534 Z-2.978
G1 X49.139 Y-125.644 Z-2.982
G1 X49.224 Y-125.744 Z-2.986
G1 X49.32 Y-125.833 Z-2.989
G1 X49.426 Y-125.909 Z-2.993
G1 X49.541 Y-125.972 Z-2.997
G1 X49.663 Y-126.021 Z-3.001
G1 X49.79 Y-126.054 Z-3.004
G1 X49.92 Y-126.072 Z-3.008
G1 X50.051 Y-126.074 Z-3.012
G1 X50.181 Y-126.06 Z-3.016
G1 X50.309 Y-126.03 Z-3.019
G1 X50.432 Y-125.985 Z-3.023
G1 X50.548 Y-125.925 Z-3.027
G1 X50.657 Y-125.851 Z-3.031
G1 X50.755 Y-125.765 Z-3.034
G1 X50.843 Y-125.667 Z-3.038
G1 X50.918 Y-125.56 Z-3.042
G1 X50.979 Y-125.444 Z-3.046
G1 X51.026 Y-125.321 Z-3.049
G1 X51.057 Y-125.194 Z-3.053
G1 X51.073 Y-125.064 Z-3.057
G1 Y-124.933 Z-3.061
G1 X51.057 Y-124.803 Z-3.064
G1 X51.025 Y-124.676 Z-3.068
G1 X50.978 Y-124.553 Z-3.072
G1 X50.916 Y-124.438 Z-3.076
G1 X50.841 Y-124.33 Z-3.079
G1 X50.753 Y-124.233 Z-3.083
G1 X50.654 Y-124.147 Z-3.087
G1 X50.546 Y-124.074 Z-3.091
G1 X50.429 Y-124.014 Z-3.094
G1 X50.306 Y-123.969 Z-3.098
G1 X50.178 Y-123.94 Z-3.102
G1 X50.048 Y-123.926 Z-3.106
G1 X49.917 Y-123.928 Z-3.109
G1 X49.787 Y-123.946 Z-3.113
G1 X49.66 Y-123.98 Z-3.117
G1 X49.538 Y-124.029 Z-3.121
G1 X49.424 Y-124.092 Z-3.124
G1 X49.318 Y-124.169 Z-3.128
G1 X49.222 Y-124.259 Z-3.132
G1 X49.137 Y-124.359 Z-3.136
G1 X49.066 Y-124.469 Z-3.139
G1 X49.008 Y-124.586 Z-3.143
G1 X48.965 Y-124.71 Z-3.147
G1 X48.937 Y-124.838 Z-3.151
G1 X48.925 Y-124.969 Z-3.154
G1 X48.93 Y-125.1 Z-3.158
G1 X48.95 Y-125.229 Z-3.162
G1 X48.985 Y-125.355 Z-3.166
G1 X49.036 Y-125.476 Z-3.169
G1 X49.101 Y-125.59 Z-3.173
G1 X49.18 Y-125.695 Z-3.177
G1 X49.271 Y-125.79 Z-3.181
G1 X49.372 Y-125.873 Z-3.184
G1 X49.483 Y-125.942 Z-3.188
G1 X49.602 Y-125.998 Z-3.192
G1 X49.726 Y-126.039 Z-3.196
G1 X49.855 Y-126.065 Z-3.199
G1 X49.985 Y-126.075 Z-3.203
G1 X50.116 Y-126.069 Z-3.207
G1 X50.245 Y-126.047 Z-3.211
G1 X50.371 Y-126.009 Z-3.214
G1 X50.491 Y-125.956 Z-3.218
G1 X50.604 Y-125.889 Z-3.222
G1 X50.707 Y-125.809 Z-3.226
G1 X50.801 Y-125.717 Z-3.23
G1 X50.882 Y-125.615 Z-3.233
G1 X50.95 Y-125.503 Z-3.237
G1 X51.004 Y-125.383 Z-3.241
G1 X51.044 Y-125.258 Z-3.245
G1 X51.067 Y-125.129 Z-3.248
G1 X51.075 Y-124.998 Z-3.252
G1 X51.067 Y-124.868 Z-3.256
G1 X51.043 Y-124.739 Z-3.26
G1 X51.003 Y-124.614 Z-3.263
G1 X50.949 Y-124.495 Z-3.267
G1 X50.88 Y-124.383 Z-3.271
G1 X50.799 Y-124.28 Z-3.275
G1 X50.705 Y-124.188 Z-3.278
G1 X50.601 Y-124.109 Z-3.282
G1 X50.488 Y-124.042 Z-3.286
G1 X50.368 Y-123.99 Z-3.29
G1 X50.242 Y-123.953 Z-3.293
G1 X50.113 Y-123.931 Z-3.297
G1 X49.982 Y-123.925 Z-3.301
G1 X49.851 Y-123.935 Z-3.305
G1 X49.723 Y-123.961 Z-3.308
G1 X49.598 Y-124.003 Z-3.312
G1 X49.48 Y-124.059 Z-3.316
G1 X49.369 Y-124.129 Z-3.32
G1 X49.268 Y-124.213 Z-3.323
G1 X49.178 Y-124.307 Z-3.327
G1 X49.1 Y-124.413 Z-3.331
G1 X49.035 Y-124.527 Z-3.335
G1 X48.984 Y-124.648 Z-3.338
G1 X48.949 Y-124.774 Z-3.342
G1 X48.929 Y-124.903 Z-3.346
G1 X48.926 Y-125.034 Z-3.35
G1 X48.938 Y-125.165 Z-3.353
G1 X48.966 Y-125.293 Z-3.357
G1 X49.009 Y-125.417 Z-3.361
G1 X49.067 Y-125.534 Z-3.365
G1 X49.139 Y-125.644 Z-3.368
G1 X49.224 Y-125.744 Z-3.372
G1 X49.32 Y-125.833 Z-3.376
G1 X49.427 Y-125.909 Z-3.38
G1 X49.541 Y-125.972 Z-3.383
G1 X49.663 Y-126.021 Z-3.387
G1 X49.79 Y-126.054 Z-3.391
G1 X49.92 Y-126.072 Z-3.395
G1 X50.051 Y-126.074 Z-3.398
G1 X50.181 Y-126.06 Z-3.402
G1 X50.309 Y-126.03 Z-3.406
G1 X50.432 Y-125.984 Z-3.41
G1 X50.548 Y-125.925 Z-3.413
G1 X50.657 Y-125.851 Z-3.417
G1 X50.756 Y-125.765 Z-3.421
G1 X50.843 Y-125.667 Z-3.425
G1 X50.918 Y-125.56 Z-3.428
G1 X50.979 Y-125.444 Z-3.432
G1 X51.026 Y-125.321 Z-3.436
G1 X51.057 Y-125.194 Z-3.44
G1 X51.073 Y-125.064 Z-3.443
G1 Y-124.933 Z-3.447
G1 X51.057 Y-124.803 Z-3.451
G1 X51.025 Y-124.676 Z-3.455
G1 X50.978 Y-124.553 Z-3.458
G1 X50.916 Y-124.438 Z-3.462
G1 X50.841 Y-124.33 Z-3.466
G1 X50.753 Y-124.233 Z-3.47
G1 X50.654 Y-124.147 Z-3.473
G1 X50.545 Y-124.074 Z-3.477
G1 X50.429 Y-124.014 Z-3.481
G1 X50.305 Y-123.969 Z-3.485
G1 X50.178 Y-123.94 Z-3.488
G1 X50.047 Y-123.926 Z-3.492
G1 X49.916 Y-123.928 Z-3.496
G1 X49.787 Y-123.946 Z-3.5
G1 X49.66 Y-123.98 Z-3.503
G1 X49.538 Y-124.029 Z-3.507
G1 X49.424 Y-124.093 Z-3.511
G1 X49.317 Y-124.169 Z-3.515
G1 X49.221 Y-124.259 Z-3.518
G1 X49.137 Y-124.359 Z-3.522
G1 X49.065 Y-124.469 Z-3.526
G1 X49.008 Y-124.586 Z-3.53
G1 X48.965 Y-124.71 Z-3.533
G1 X48.937 Y-124.838 Z-3.537
G1 X48.925 Y-124.969 Z-3.541
G1 X48.93 Y-125.1 Z-3.545
G1 X48.95 Y-125.229 Z-3.548
G1 X48.986 Y-125.356 Z-3.552
G1 X49.036 Y-125.476 Z-3.556
G1 X49.101 Y-125.59 Z-3.56
G1 X49.18 Y-125.695 Z-3.564
G1 X49.271 Y-125.79 Z-3.567
G1 X49.372 Y-125.873 Z-3.571
G1 X49.483 Y-125.943 Z-3.575
G1 X49.602 Y-125.998 Z-3.579
G1 X49.726 Y-126.04 Z-3.582
G1 X49.855 Y-126.065 Z-3.586
G1 X49.985 Y-126.075 Z-3.59
G1 X50.116 Y-126.069 Z-3.594
G1 X50.246 Y-126.047 Z-3.597
G1 X50.371 Y-126.009 Z-3.601
G1 X50.491 Y-125.956 Z-3.605
G1 X50.604 Y-125.889 Z-3.609
G1 X50.708 Y-125.809 Z-3.612
G1 X50.801 Y-125.717 Z-3.616
G1 X50.882 Y-125.614 Z-3.62
G1 X50.95 Y-125.502 Z-3.624
G1 X51.004 Y-125.383 Z-3.627
G1 X51.044 Y-125.258 Z-3.631
G1 X51.067 Y-125.129 Z-3.635
G1 X51.075 Y-124.998 Z-3.639
G1 X51.067 Y-124.867 Z-3.642
G1 X51.043 Y-124.739 Z-3.646
G1 X51.003 Y-124.614 Z-3.65
G1 X50.949 Y-124.494 Z-3.654
G1 X50.88 Y-124.383 Z-3.657
G1 X50.798 Y-124.28 Z-3.661
G1 X50.705 Y-124.188 Z-3.665
G1 X50.601 Y-124.109 Z-3.669
G1 X50.488 Y-124.042 Z-3.672
G1 X50.368 Y-123.99 Z-3.676
G1 X50.242 Y-123.953 Z-3.68
G1 X50.113 Y-123.931 Z-3.684
G1 X49.982 Y-123.925 Z-3.687
G1 X49.851 Y-123.935 Z-3.691
G1 X49.723 Y-123.961 Z-3.695
G1 X49.598 Y-124.003 Z-3.699
G1 X49.48 Y-124.059 Z-3.702
G1 X49.369 Y-124.129 Z-3.706
G1 X49.268 Y-124.213 Z-3.71
G1 X49.178 Y-124.308 Z-3.714
G1 X49.1 Y-124.413 Z-3.717
G1 X49.035 Y-124.527 Z-3.721
G1 X48.984 Y-124.648 Z-3.725
G1 X48.949 Y-124.774 Z-3.729
G1 X48.929 Y-124.904 Z-3.732
G1 X48.926 Y-125.035 Z-3.736
G1 X48.938 Y-125.165 Z-3.74
G1 X48.966 Y-125.293 Z-3.744
G1 X49.009 Y-125.417 Z-3.747
G1 X49.067 Y-125.534 Z-3.751
G1 X49.139 Y-125.644 Z-3.755
G1 X49.224 Y-125.744 Z-3.759
G1 X49.32 Y-125.833 Z-3.762
G1 X49.427 Y-125.909 Z-3.766
G1 X49.542 Y-125.972 Z-3.77
G1 X49.663 Y-126.021 Z-3.774
G1 X49.79 Y-126.054 Z-3.777
G1 X49.92 Y-126.072 Z-3.781
G1 X50.051 Y-126.074 Z-3.785
G1 X50.181 Y-126.06 Z-3.789
G1 X50.309 Y-126.03 Z-3.792
G1 X50.432 Y-125.984 Z-3.796
G1 X50.549 Y-125.925 Z-3.8
G1 X50.657 Y-125.851 Z-3.804
G1 X50.756 Y-125.765 Z-3.807
G1 X50.843 Y-125.667 Z-3.811
G1 X50.918 Y-125.559 Z-3.815
G1 X50.979 Y-125.444 Z-3.819
G1 X51.026 Y-125.321 Z-3.822
G1 X51.057 Y-125.194 Z-3.826
G1 X51.073 Y-125.064 Z-3.83
G1 Y-124.933 Z-3.834
G1 X51.057 Y-124.803 Z-3.837
G1 X51.025 Y-124.675 Z-3.841
G1 X50.978 Y-124.553 Z-3.845
G1 X50.916 Y-124.437 Z-3.849
G1 X50.841 Y-124.33 Z-3.852
G1 X50.753 Y-124.233 Z-3.856
G1 X50.654 Y-124.147 Z-3.86
G1 X50.545 Y-124.074 Z-3.864
G1 X50.429 Y-124.014 Z-3.867
G1 X50.305 Y-123.969 Z-3.871
G1 X50.178 Y-123.94 Z-3.875
G1 X50.047 Y-123.926 Z-3.879
G1 X49.916 Y-123.928 Z-3.883
G1 X49.786 Y-123.946 Z-3.886
G1 X49.66 Y-123.98 Z-3.89
G1 X49.538 Y-124.029 Z-3.894
G1 X49.423 Y-124.093 Z-3.898
G1 X49.317 Y-124.17 Z-3.901
G1 X49.221 Y-124.259 Z-3.905
G1 X49.137 Y-124.359 Z-3.909
G1 X49.065 Y-124.469 Z-3.913
G1 X49.008 Y-124.587 Z-3.916
G1 X48.965 Y-124.71 Z-3.92
G1 X48.937 Y-124.839 Z-3.924
G1 X48.925 Y-124.969 Z-3.928
G1 X48.93 Y-125.1 Z-3.931
G1 X48.95 Y-125.23 Z-3.935
G1 X48.986 Y-125.356 Z-3.939
G1 X49.036 Y-125.477 Z-3.943
G1 X49.102 Y-125.59 Z-3.946
G1 X49.18 Y-125.695 Z-3.95
G1 X49.271 Y-125.79 Z-3.954
G1 X49.372 Y-125.873 Z-3.958
G1 X49.483 Y-125.943 Z-3.961
G1 X49.602 Y-125.999 Z-3.965
G1 X49.726 Y-126.04 Z-3.969
G1 X49.855 Y-126.065 Z-3.973
G1 X49.986 Y-126.075 Z-3.976
G1 X50.116 Y-126.069 Z-3.98
G1 X50.246 Y-126.047 Z-3.984
G1 X50.371 Y-126.009 Z-3.988
G1 X50.491 Y-125.956 Z-3.991
G1 X50.604 Y-125.889 Z-3.995
G1 X50.708 Y-125.809 Z-3.999
G1 X50.801 Y-125.717 Z-4.003
G1 X50.882 Y-125.614 Z-4.006
G1 X50.95 Y-125.502 Z-4.01
G1 X51.004 Y-125.383 Z-4.014
G1 X51.044 Y-125.258 Z-4.018
G1 X51.067 Y-125.129 Z-4.021
G1 X51.075 Y-124.998 Z-4.025
G1 X51.067 Y-124.867 Z-4.029
G1 X51.043 Y-124.738 Z-4.033
G1 X51.003 Y-124.613 Z-4.036
G1 X50.949 Y-124.494 Z-4.04
G1 X50.88 Y-124.383 Z-4.044
G1 X50.798 Y-124.28 Z-4.048
G1 X50.705 Y-124.188 Z-4.051
G1 X50.601 Y-124.109 Z-4.055
G1 X50.488 Y-124.042 Z-4.059
G1 X50.368 Y-123.99 Z-4.063
G1 X50.242 Y-123.953 Z-4.066
G1 X50.113 Y-123.931 Z-4.07
G1 X49.982 Y-123.925 Z-4.074
G1 X49.851 Y-123.935 Z-4.078
G1 X49.723 Y-123.961 Z-4.081
G1 X49.598 Y-124.003 Z-4.085
G1 X49.48 Y-124.059 Z-4.089
G1 X49.369 Y-124.13 Z-4.093
G1 X49.268 Y-124.213 Z-4.096
G1 X49.178 Y-124.308 Z-4.1
G1 X49.099 Y-124.413 Z-4.104
G1 X49.035 Y-124.527 Z-4.108
G1 X48.984 Y-124.648 Z-4.111
G1 X48.949 Y-124.774 Z-4.115
G1 X48.929 Y-124.904 Z-4.119
G1 X48.926 Y-125.035 Z-4.123
G1 X48.938 Y-125.165 Z-4.126
G1 X48.966 Y-125.293 Z-4.13
G1 X49.009 Y-125.417 Z-4.134
G1 X49.067 Y-125.534 Z-4.138
G1 X49.139 Y-125.644 Z-4.141
G1 X49.224 Y-125.744 Z-4.145
G1 X49.32 Y-125.833 Z-4.149
G1 X49.427 Y-125.909 Z-4.153
G1 X49.542 Y-125.972 Z-4.156
G1 X49.663 Y-126.021 Z-4.16
G1 X49.79 Y-126.054 Z-4.164
G1 X49.92 Y-126.072 Z-4.168
G1 X50.051 Y-126.074 Z-4.171
G1 X50.181 Y-126.06 Z-4.175
G1 X50.309 Y-126.03 Z-4.179
G1 X50.432 Y-125.984 Z-4.183
G1 X50.549 Y-125.924 Z-4.186
G1 X50.657 Y-125.851 Z-4.19
G1 X50.756 Y-125.765 Z-4.194
G1 X50.843 Y-125.667 Z-4.198
G1 X50.918 Y-125.559 Z-4.202
G1 X50.979 Y-125.443 Z-4.205
G1 X51.026 Y-125.321 Z-4.209
G1 X51.057 Y-125.194 Z-4.213
G1 X51.073 Y-125.064 Z-4.217
G1 Y-124.932 Z-4.22
G1 X51.057 Y-124.802 Z-4.224
G1 X51.025 Y-124.675 Z-4.228
G1 X50.978 Y-124.553 Z-4.232
G1 X50.916 Y-124.437 Z-4.235
G1 X50.841 Y-124.33 Z-4.239
G1 X50.753 Y-124.233 Z-4.243
G1 X50.654 Y-124.147 Z-4.247
G1 X50.545 Y-124.074 Z-4.25
G1 X50.428 Y-124.014 Z-4.254
G1 X50.305 Y-123.969 Z-4.258
G1 X50.177 Y-123.94 Z-4.262
G1 X50.047 Y-123.926 Z-4.265
G1 X49.916 Y-123.928 Z-4.269
G1 X49.786 Y-123.946 Z-4.273
G1 X49.66 Y-123.98 Z-4.277
G1 X49.538 Y-124.029 Z-4.28
G1 X49.423 Y-124.093 Z-4.284
G1 X49.317 Y-124.17 Z-4.288
G1 X49.221 Y-124.259 Z-4.292
G1 X49.137 Y-124.359 Z-4.295
G1 X49.065 Y-124.469 Z-4.299
G1 X49.008 Y-124.587 Z-4.303
G1 X48.965 Y-124.711 Z-4.307
G1 X48.937 Y-124.839 Z-4.31
G1 X48.925 Y-124.969 Z-4.314
G1 X48.93 Y-125.1 Z-4.318
G1 X48.95 Y-125.23 Z-4.322
G1 X48.986 Y-125.356 Z-4.325
G1 X49.036 Y-125.477 Z-4.329
G1 X49.102 Y-125.59 Z-4.333
G1 X49.18 Y-125.695 Z-4.337
G1 X49.271 Y-125.79 Z-4.34
G1 X49.372 Y-125.873 Z-4.344
G1 X49.483 Y-125.943 Z-4.348
G1 X49.602 Y-125.999 Z-4.352
G1 X49.726 Y-126.04 Z-4.355
G1 X49.855 Y-126.065 Z-4.359
G1 X49.986 Y-126.075 Z-4.363
G1 X50.117 Y-126.069 Z-4.367
G1 X50.246 Y-126.047 Z-4.37
G1 X50.371 Y-126.009 Z-4.374
G1 X50.491 Y-125.956 Z-4.378
G1 X50.604 Y-125.889 Z-4.382
G1 X50.708 Y-125.809 Z-4.385
G1 X50.801 Y-125.717 Z-4.389
G1 X50.882 Y-125.614 Z-4.393
G1 X50.95 Y-125.502 Z-4.397
G1 X51.005 Y-125.383 Z-4.4
G1 X51.044 Y-125.258 Z-4.404
G1 X51.067 Y-125.129 Z-4.408
G1 X51.075 Y-124.998 Z-4.412
G1 X51.067 Y-124.867 Z-4.415
G1 X51.043 Y-124.738 Z-4.419
G1 X51.003 Y-124.613 Z-4.423
G1 X50.949 Y-124.494 Z-4.427
G1 X50.88 Y-124.382 Z-4.43
G1 X50.798 Y-124.28 Z-4.434
G1 X50.705 Y-124.188 Z-4.438
G1 X50.601 Y-124.108 Z-4.442
G1 X50.488 Y-124.042 Z-4.445
G1 X50.367 Y-123.99 Z-4.449
G1 X50.242 Y-123.953 Z-4.453
G1 X50.112 Y-123.931 Z-4.457
G1 X49.981 Y-123.925 Z-4.46
G1 X49.851 Y-123.935 Z-4.464
G1 X49.722 Y-123.961 Z-4.468
G1 X49.598 Y-124.003 Z-4.472
G1 X49.48 Y-124.059 Z-4.475
G1 X49.369 Y-124.13 Z-4.479
G1 X49.268 Y-124.213 Z-4.483
G1 X49.177 Y-124.308 Z-4.487
G1 X49.099 Y-124.413 Z-4.49
G1 X49.035 Y-124.527 Z-4.494
G1 X48.984 Y-124.648 Z-4.498
G1 X48.949 Y-124.774 Z-4.502
G1 X48.929 Y-124.904 Z-4.505
G1 X48.926 Y-125.035 Z-4.509
G1 X48.938 Y-125.165 Z-4.513
G1 X48.966 Y-125.293 Z-4.517
G1 X49.009 Y-125.417 Z-4.52
G1 X49.067 Y-125.535 Z-4.524
G1 X49.139 Y-125.644 Z-4.528
G1 X49.224 Y-125.744 Z-4.532
G1 X49.32 Y-125.833 Z-4.536
G1 X49.427 Y-125.909 Z-4.539
G1 X49.542 Y-125.972 Z-4.543
G1 X49.664 Y-126.021 Z-4.547
G1 X49.79 Y-126.054 Z-4.551
G1 X49.92 Y-126.072 Z-4.554
G1 X50.051 Y-126.074 Z-4.558
G1 X50.182 Y-126.06 Z-4.562
G1 X50.309 Y-126.03 Z-4.566
G1 X50.432 Y-125.984 Z-4.569
G1 X50.549 Y-125.924 Z-4.573
G1 X50.657 Y-125.851 Z-4.577
G1 X50.756 Y-125.764 Z-4.581
G1 X50.843 Y-125.667 Z-4.584
G1 X50.918 Y-125.559 Z-4.588
G1 X50.979 Y-125.443 Z-4.592
G1 X51.026 Y-125.321 Z-4.596
G1 X51.057 Y-125.194 Z-4.599
G1 X51.073 Y-125.063 Z-4.603
G1 Y-124.932 Z-4.607
G1 X51.057 Y-124.802 Z-4.611
G1 X51.025 Y-124.675 Z-4.614
G1 X50.978 Y-124.553 Z-4.618
G1 X50.916 Y-124.437 Z-4.622
G1 X50.841 Y-124.33 Z-4.626
G1 X50.753 Y-124.233 Z-4.629
G1 X50.654 Y-124.147 Z-4.633
G1 X50.545 Y-124.073 Z-4.637
G1 X50.428 Y-124.014 Z-4.641
G1 X50.305 Y-123.969 Z-4.644
G1 X50.177 Y-123.94 Z-4.648
G1 X50.047 Y-123.926 Z-4.652
G1 X49.916 Y-123.928 Z-4.656
G1 X49.786 Y-123.946 Z-4.659
G1 X49.66 Y-123.98 Z-4.663
G1 X49.538 Y-124.029 Z-4.667
G1 X49.423 Y-124.093 Z-4.671
G1 X49.317 Y-124.17 Z-4.674
G1 X49.221 Y-124.259 Z-4.678
G1 X49.137 Y-124.359 Z-4.682
G1 X49.065 Y-124.469 Z-4.686
G1 X49.008 Y-124.587 Z-4.689
G1 X48.965 Y-124.711 Z-4.693
G1 X48.937 Y-124.839 Z-4.697
G1 X48.925 Y-124.969 Z-4.701
G1 X48.93 Y-125.1 Z-4.704
G1 X48.95 Y-125.23 Z-4.708
G1 X48.986 Y-125.356 Z-4.712
G1 X49.037 Y-125.477 Z-4.716
G1 X49.102 Y-125.591 Z-4.719
G1 X49.18 Y-125.695 Z-4.723
G1 X49.271 Y-125.79 Z-4.727
G1 X49.373 Y-125.873 Z-4.731
G1 X49.483 Y-125.943 Z-4.734
G1 X49.602 Y-125.999 Z-4.738
G1 X49.727 Y-126.04 Z-4.742
G1 X49.855 Y-126.065 Z-4.746
G1 X49.986 Y-126.075 Z-4.749
G1 X50.117 Y-126.069 Z-4.753
G1 X50.246 Y-126.046 Z-4.757
G1 X50.371 Y-126.009 Z-4.761
G1 X50.491 Y-125.956 Z-4.764
G1 X50.604 Y-125.889 Z-4.768
G1 X50.708 Y-125.809 Z-4.772
G1 X50.801 Y-125.717 Z-4.776
G1 X50.882 Y-125.614 Z-4.779
G1 X50.951 Y-125.502 Z-4.783
G1 X51.005 Y-125.383 Z-4.787
G1 X51.044 Y-125.258 Z-4.791
G1 X51.067 Y-125.129 Z-4.794
G1 X51.075 Y-124.998 Z-4.798
G1 X51.067 Y-124.867 Z-4.802
G1 X51.043 Y-124.738 Z-4.806
G1 X51.003 Y-124.613 Z-4.809
G1 X50.948 Y-124.494 Z-4.813
G1 X50.88 Y-124.382 Z-4.817
G1 X50.798 Y-124.28 Z-4.821
G1 X50.705 Y-124.188 Z-4.824
G1 X50.6 Y-124.108 Z-4.828
G1 X50.487 Y-124.042 Z-4.832
G1 X50.367 Y-123.99 Z-4.836
G1 X50.242 Y-123.952 Z-4.839
G1 X50.112 Y-123.931 Z-4.843
G1 X49.981 Y-123.925 Z-4.847
G1 X49.851 Y-123.935 Z-4.851
G1 X49.722 Y-123.962 Z-4.855
G1 X49.598 Y-124.003 Z-4.858
G1 X49.48 Y-124.059 Z-4.862
G1 X49.369 Y-124.13 Z-4.866
G1 X49.268 Y-124.213 Z-4.87
G1 X49.177 Y-124.308 Z-4.873
G1 X49.099 Y-124.413 Z-4.877
G1 X49.035 Y-124.527 Z-4.881
G1 X48.984 Y-124.648 Z-4.885
G1 X48.949 Y-124.774 Z-4.888
G1 X48.929 Y-124.904 Z-4.892
G1 X48.926 Y-125.035 Z-4.896
G1 X48.938 Y-125.166 Z-4.9
G1 X48.966 Y-125.294 Z-4.903
G1 X49.009 Y-125.417 Z-4.907
G1 X49.067 Y-125.535 Z-4.911
G1 X49.139 Y-125.644 Z-4.915
G1 X49.224 Y-125.744 Z-4.918
G1 X49.321 Y-125.833 Z-4.922
G1 X49.427 Y-125.91 Z-4.926
G1 X49.542 Y-125.973 Z-4.93
G1 X49.664 Y-126.021 Z-4.933
G1 X49.791 Y-126.054 Z-4.937
G1 X49.92 Y-126.072 Z-4.941
G1 X50.051 Y-126.074 Z-4.945
G1 X50.182 Y-126.06 Z-4.948
G1 X50.309 Y-126.03 Z-4.952
G1 X50.432 Y-125.984 Z-4.956
G1 X50.549 Y-125.924 Z-4.96
G1 X50.657 Y-125.851 Z-4.963
G1 X50.756 Y-125.764 Z-4.967
G1 X50.843 Y-125.667 Z-4.971
G1 X50.918 Y-125.559 Z-4.975
G1 X50.979 Y-125.443 Z-4.978
G1 X51.026 Y-125.321 Z-4.982
G1 X51.057 Y-125.193 Z-4.986
G1 X51.073 Y-125.063 Z-4.99
G1 Y-124.932 Z-4.993
G1 X51.057 Y-124.802 Z-4.997
G1 X51.025 Y-124.675 Z-5.001
G1 X50.978 Y-124.553 Z-5.005
G1 X50.916 Y-124.437 Z-5.008
G1 X50.84 Y-124.33 Z-5.012
G1 X50.753 Y-124.232 Z-5.016
G1 X50.654 Y-124.147 Z-5.02
G1 X50.545 Y-124.073 Z-5.023
G1 X50.428 Y-124.014 Z-5.027
G1 X50.305 Y-123.969 Z-5.031
G1 X50.177 Y-123.94 Z-5.035
G1 X50.047 Y-123.926 Z-5.038
G1 X49.916 Y-123.928 Z-5.042
G1 X49.786 Y-123.947 Z-5.046
G1 X49.659 Y-123.98 Z-5.05
G1 X49.538 Y-124.029 Z-5.053
G1 X49.423 Y-124.093 Z-5.057
G1 X49.317 Y-124.17 Z-5.061
G1 X49.221 Y-124.259 Z-5.065
G1 X49.137 Y-124.359 Z-5.068
G1 X49.065 Y-124.469 Z-5.072
G1 X49.008 Y-124.587 Z-5.076
G1 X48.965 Y-124.711 Z-5.08
G1 X48.937 Y-124.839 Z-5.083
G1 X48.925 Y-124.97 Z-5.087
G1 X48.93 Y-125.101 Z-5.091
G1 X48.95 Y-125.23 Z-5.095
G1 X48.986 Y-125.356 Z-5.098
G1 X49.037 Y-125.477 Z-5.102
G1 X49.102 Y-125.591 Z-5.106
G1 X49.18 Y-125.696 Z-5.11
G1 X49.271 Y-125.79 Z-5.113
G1 X49.373 Y-125.873 Z-5.117
G1 X49.484 Y-125.943 Z-5.121
G1 X49.602 Y-125.999 Z-5.125
G1 X49.727 Y-126.04 Z-5.128
G1 X49.855 Y-126.065 Z-5.132
G1 X49.986 Y-126.075 Z-5.136
G1 X50.117 Y-126.069 Z-5.14
G1 X50.246 Y-126.046 Z-5.143
G1 X50.372 Y-126.009 Z-5.147
G1 X50.492 Y-125.956 Z-5.151
G1 X50.604 Y-125.889 Z-5.155
G1 X50.708 Y-125.809 Z-5.158
G1 X50.801 Y-125.717 Z-5.162
G1 X50.882 Y-125.614 Z-5.166
G1 X50.951 Y-125.502 Z-5.17
G1 X51.005 Y-125.383 Z-5.173
G1 X51.044 Y-125.257 Z-5.177
G1 X51.067 Y-125.128 Z-5.181
G1 X51.075 Y-124.998 Z-5.185
G1 X51.067 Y-124.867 Z-5.189
G1 X51.043 Y-124.738 Z-5.192
G1 X51.003 Y-124.613 Z-5.196
G1 X50.948 Y-124.494 Z-5.2
G1 X50.88 Y-124.382 Z-5.204
G1 X50.798 Y-124.28 Z-5.207
G1 X50.704 Y-124.188 Z-5.211
G1 X50.6 Y-124.108 Z-5.215
G1 X50.487 Y-124.042 Z-5.219
G1 X50.367 Y-123.99 Z-5.222
G1 X50.241 Y-123.952 Z-5.226
G1 X50.112 Y-123.931 Z-5.23
G1 X49.981 Y-123.925 Z-5.234
G1 X49.851 Y-123.935 Z-5.237
G1 X49.722 Y-123.962 Z-5.241
G1 X49.598 Y-124.003 Z-5.245
G1 X49.479 Y-124.059 Z-5.249
G1 X49.369 Y-124.13 Z-5.252
G1 X49.268 Y-124.213 Z-5.256
G1 X49.177 Y-124.308 Z-5.26
G1 X49.099 Y-124.413 Z-5.264
G1 X49.034 Y-124.527 Z-5.267
G1 X48.984 Y-124.648 Z-5.271
G1 X48.949 Y-124.775 Z-5.275
G1 X48.929 Y-124.904 Z-5.279
G1 X48.926 Y-125.035 Z-5.282
G1 X48.938 Y-125.166 Z-5.286
G1 X48.966 Y-125.294 Z-5.29
G1 X49.009 Y-125.417 Z-5.294
G1 X49.068 Y-125.535 Z-5.297
G1 X49.14 Y-125.644 Z-5.301
G1 X49.224 Y-125.744 Z-5.305
G1 X49.321 Y-125.833 Z-5.309
G1 X49.427 Y-125.91 Z-5.312
G1 X49.542 Y-125.973 Z-5.316
G1 X49.664 Y-126.021 Z-5.32
G1 X49.791 Y-126.054 Z-5.324
G1 X49.921 Y-126.072 Z-5.327
G1 X50.052 Y-126.074 Z-5.331
G1 X50.182 Y-126.059 Z-5.335
G1 X50.309 Y-126.029 Z-5.339
G1 X50.432 Y-125.984 Z-5.342
G1 X50.549 Y-125.924 Z-5.346
G1 X50.657 Y-125.851 Z-5.35
G1 X50.756 Y-125.764 Z-5.354
G1 X50.843 Y-125.666 Z-5.357
G1 X50.918 Y-125.559 Z-5.361
G1 X50.979 Y-125.443 Z-5.365
G1 X51.026 Y-125.32 Z-5.369
G1 X51.057 Y-125.193 Z-5.372
G1 X51.073 Y-125.063 Z-5.376
G1 Y-124.932 Z-5.38
G1 X51.057 Y-124.802 Z-5.384
G1 X51.025 Y-124.675 Z-5.387
G1 X50.977 Y-124.553 Z-5.391
G1 X50.916 Y-124.437 Z-5.395
G1 X50.84 Y-124.33 Z-5.399
G1 X50.753 Y-124.232 Z-5.402
G1 X50.654 Y-124.146 Z-5.406
G1 X50.545 Y-124.073 Z-5.41
G1 X50.428 Y-124.014 Z-5.414
G1 X50.305 Y-123.969 Z-5.417
G1 X50.177 Y-123.94 Z-5.421
G1 X50.047 Y-123.926 Z-5.425
G1 X49.916 Y-123.928 Z-5.429
G1 X49.786 Y-123.947 Z-5.432
G1 X49.659 Y-123.98 Z-5.436
G1 X49.538 Y-124.029 Z-5.44
G1 X49.423 Y-124.093 Z-5.444
G1 X49.317 Y-124.17 Z-5.447
G1 X49.221 Y-124.259 Z-5.451
G1 X49.137 Y-124.36 Z-5.455
G1 X49.065 Y-124.469 Z-5.459
G1 X49.007 Y-124.587 Z-5.462
G1 X48.965 Y-124.711 Z-5.466
G1 X48.937 Y-124.839 Z-5.47
G1 X48.925 Y-124.97 Z-5.474
G1 X48.93 Y-125.101 Z-5.477
G1 X48.95 Y-125.23 Z-5.481
G1 X48.986 Y-125.356 Z-5.485
G1 X49.037 Y-125.477 Z-5.489
G1 X49.102 Y-125.591 Z-5.492
G1 X49.18 Y-125.696 Z-5.496
G1 X49.271 Y-125.79 Z-5.5
G1 X49.373 Y-125.873 Z-5.504
G1 X49.484 Y-125.943 Z-5.508
G1 X49.602 Y-125.999 Z-5.511
G1 X49.727 Y-126.04 Z-5.515
G1 X49.855 Y-126.065 Z-5.519
G1 X49.986 Y-126.075 Z-5.523
G1 X50.117 Y-126.069 Z-5.526
G1 X50.246 Y-126.046 Z-5.53
G1 X50.372 Y-126.009 Z-5.534
G1 X50.492 Y-125.956 Z-5.538
G1 X50.604 Y-125.889 Z-5.541
G1 X50.708 Y-125.809 Z-5.545
G1 X50.801 Y-125.717 Z-5.549
G1 X50.883 Y-125.614 Z-5.553
G1 X50.951 Y-125.502 Z-5.556
G1 X51.005 Y-125.382 Z-5.56
G1 X51.044 Y-125.257 Z-5.564
G1 X51.067 Y-125.128 Z-5.568
G1 X51.075 Y-124.997 Z-5.571
G1 X51.067 Y-124.867 Z-5.575
G1 X51.043 Y-124.738 Z-5.579
G1 X51.003 Y-124.613 Z-5.583
G1 X50.948 Y-124.494 Z-5.586
G1 X50.88 Y-124.382 Z-5.59
G1 X50.798 Y-124.28 Z-5.594
G1 X50.704 Y-124.188 Z-5.598
G1 X50.6 Y-124.108 Z-5.601
G1 X50.487 Y-124.042 Z-5.605
G1 X50.367 Y-123.99 Z-5.609
G1 X50.241 Y-123.952 Z-5.613
G1 X50.112 Y-123.931 Z-5.616
G1 X49.981 Y-123.925 Z-5.62
G1 X49.85 Y-123.935 Z-5.624
G1 X49.722 Y-123.962 Z-5.628
G1 X49.598 Y-124.003 Z-5.631
G1 X49.479 Y-124.06 Z-5.635
G1 X49.369 Y-124.13 Z-5.639
G1 X49.268 Y-124.213 Z-5.643
G1 X49.177 Y-124.308 Z-5.646
G1 X49.099 Y-124.413 Z-5.65
G1 X49.034 Y-124.527 Z-5.654
G1 X48.984 Y-124.648 Z-5.658
G1 X48.949 Y-124.775 Z-5.661
G1 X48.929 Y-124.904 Z-5.665
G1 X48.926 Y-125.035 Z-5.669
G1 X48.938 Y-125.166 Z-5.673
G1 X48.966 Y-125.294 Z-5.676
G1 X49.009 Y-125.418 Z-5.68
G1 X49.068 Y-125.535 Z-5.684
G1 X49.14 Y-125.645 Z-5.688
G1 X49.224 Y-125.744 Z-5.691
G1 X49.321 Y-125.833 Z-5.695
G1 X49.427 Y-125.91 Z-5.699
G1 X49.542 Y-125.973 Z-5.703
G1 X49.664 Y-126.021 Z-5.706
G1 X49.791 Y-126.054 Z-5.71
G1 X49.921 Y-126.072 Z-5.714
G1 X50.052 Y-126.074 Z-5.718
G1 X50.182 Y-126.059 Z-5.721
G1 X50.31 Y-126.029 Z-5.725
G1 X50.433 Y-125.984 Z-5.729
G1 X50.549 Y-125.924 Z-5.733
G1 X50.658 Y-125.85 Z-5.736
G1 X50.756 Y-125.764 Z-5.74
G1 X50.844 Y-125.666 Z-5.744
G1 X50.918 Y-125.559 Z-5.748
G1 X50.98 Y-125.443 Z-5.751
G1 X51.026 Y-125.32 Z-5.755
G1 X51.058 Y-125.193 Z-5.759
G1 X51.073 Y-125.063 Z-5.763
G1 Y-124.932 Z-5.766
G1 X51.057 Y-124.802 Z-5.77
G1 X51.025 Y-124.675 Z-5.774
G1 X50.977 Y-124.552 Z-5.778
G1 X50.916 Y-124.437 Z-5.781
G1 X50.84 Y-124.33 Z-5.785
G1 X50.752 Y-124.232 Z-5.789
G1 X50.653 Y-124.146 Z-5.793
G1 X50.545 Y-124.073 Z-5.796
G1 X50.428 Y-124.014 Z-5.8
G1 X50.305 Y-123.969 Z-5.804
G1 X50.177 Y-123.94 Z-5.808
G1 X50.047 Y-123.926 Z-5.811
G1 X49.915 Y-123.928 Z-5.815
G1 X49.786 Y-123.947 Z-5.819
G1 X49.659 Y-123.98 Z-5.823
G1 X49.538 Y-124.03 Z-5.827
G1 X49.423 Y-124.093 Z-5.83
G1 X49.317 Y-124.17 Z-5.834
G1 X49.221 Y-124.259 Z-5.838
G1 X49.137 Y-124.36 Z-5.842
G1 X49.065 Y-124.47 Z-5.845
G1 X49.007 Y-124.587 Z-5.849
G1 X48.965 Y-124.711 Z-5.853
G1 X48.937 Y-124.839 Z-5.857
G1 X48.925 Y-124.97 Z-5.86
G1 X48.93 Y-125.101 Z-5.864
G1 X48.95 Y-125.23 Z-5.868
G1 X48.986 Y-125.356 Z-5.872
G1 X49.037 Y-125.477 Z-5.875
G1 X49.102 Y-125.591 Z-5.879
G1 X49.181 Y-125.696 Z-5.883
G1 X49.271 Y-125.79 Z-5.887
G1 X49.373 Y-125.873 Z-5.89
G1 X49.484 Y-125.943 Z-5.894
G1 X49.602 Y-125.999 Z-5.898
G1 X49.727 Y-126.04 Z-5.902
G1 X49.856 Y-126.065 Z-5.905
G1 X49.986 Y-126.075 Z-5.909
G1 X50.117 Y-126.069 Z-5.913
G1 X50.246 Y-126.046 Z-5.917
G1 X50.372 Y-126.009 Z-5.92
G1 X50.492 Y-125.956 Z-5.924
G1 X50.605 Y-125.889 Z-5.928
G1 X50.708 Y-125.809 Z-5.932
G1 X50.801 Y-125.717 Z-5.935
G1 X50.883 Y-125.614 Z-5.939
G1 X50.951 Y-125.502 Z-5.943
G1 X51.005 Y-125.382 Z-5.947
G1 X51.044 Y-125.257 Z-5.95
G1 X51.067 Y-125.128 Z-5.954
G1 X51.075 Y-124.997 Z-5.958
G1 X51.067 Y-124.867 Z-5.962
G1 X51.043 Y-124.738 Z-5.965
G1 X51.003 Y-124.613 Z-5.969
G1 X50.948 Y-124.494 Z-5.973
G1 X50.88 Y-124.382 Z-5.977
G1 X50.798 Y-124.279 Z-5.98
G1 X50.704 Y-124.188 Z-5.984
G1 X50.6 Y-124.108 Z-5.988
G1 X50.487 Y-124.042 Z-5.992
G1 X50.367 Y-123.99 Z-5.995
G1 X50.241 Y-123.952 Z-5.999
G1 X50.112 Y-123.931 Z-6.003
G1 X49.981 Y-123.925 Z-6.007
G1 X49.85 Y-123.935 Z-6.01
G1 X49.722 Y-123.962 Z-6.014
G1 X49.597 Y-124.003 Z-6.018
G1 X49.479 Y-124.06 Z-6.022
G1 X49.369 Y-124.13 Z-6.025
G1 X49.267 Y-124.213 Z-6.029
G1 X49.177 Y-124.308 Z-6.033
G1 X49.099 Y-124.414 Z-6.037
G1 X49.034 Y-124.528 Z-6.04
G1 X48.984 Y-124.649 Z-6.044
G1 X48.949 Y-124.775 Z-6.048
G1 X48.929 Y-124.904 Z-6.052
G1 X48.926 Y-125.036 Z-6.055
G1 X48.938 Y-125.166 Z-6.059
G1 X48.966 Y-125.294 Z-6.063
G1 X49.009 Y-125.418 Z-6.067
G1 X49.068 Y-125.535 Z-6.07
G1 X49.14 Y-125.645 Z-6.074
G1 X49.225 Y-125.745 Z-6.078
G1 X49.321 Y-125.833 Z-6.082
G1 X49.427 Y-125.91 Z-6.085
G1 X49.542 Y-125.973 Z-6.089
G1 X49.664 Y-126.021 Z-6.093
G1 X49.791 Y-126.054 Z-6.097
G1 X49.921 Y-126.072 Z-6.1
G1 X50.052 Y-126.074 Z-6.104
G1 X50.182 Y-126.059 Z-6.108
G1 X50.31 Y-126.029 Z-6.112
G1 X50.433 Y-125.984 Z-6.115
G1 X50.549 Y-125.924 Z-6.119
G1 X50.658 Y-125.85 Z-6.123
G1 X50.756 Y-125.764 Z-6.127
G1 X50.844 Y-125.666 Z-6.13
G1 X50.918 Y-125.559 Z-6.134
G1 X50.98 Y-125.443 Z-6.138
G1 X51.026 Y-125.32 Z-6.142
G1 X51.058 Y-125.193 Z-6.145
G1 X51.073 Y-125.063 Z-6.149
G1 Y-124.932 Z-6.153
G1 X51.057 Y-124.802 Z-6.157
G1 X51.025 Y-124.675 Z-6.161
G1 X50.977 Y-124.552 Z-6.164
G1 X50.916 Y-124.437 Z-6.168
G1 X50.84 Y-124.329 Z-6.172
G1 X50.752 Y-124.232 Z-6.176
G1 X50.653 Y-124.146 Z-6.179
G1 X50.545 Y-124.073 Z-6.183
G1 X50.428 Y-124.014 Z-6.187
G1 X50.304 Y-123.969 Z-6.191
G1 X50.177 Y-123.94 Z-6.194
G1 X50.046 Y-123.926 Z-6.198
G1 X49.915 Y-123.928 Z-6.202
G1 X49.786 Y-123.947 Z-6.206
G1 X49.659 Y-123.981 Z-6.209
G1 X49.537 Y-124.03 Z-6.213
G1 X49.423 Y-124.093 Z-6.217
G1 X49.317 Y-124.17 Z-6.221
G1 X49.221 Y-124.259 Z-6.224
G1 X49.136 Y-124.36 Z-6.228
G1 X49.065 Y-124.47 Z-6.232
G1 X49.007 Y-124.587 Z-6.236
G1 X48.964 Y-124.711 Z-6.239
G1 X48.937 Y-124.839 Z-6.243
G1 X48.925 Y-124.97 Z-6.247
G1 X48.93 Y-125.101 Z-6.251
G1 X48.95 Y-125.231 Z-6.254
G1 X48.986 Y-125.357 Z-6.258
G1 X49.037 Y-125.477 Z-6.262
G1 X49.102 Y-125.591 Z-6.266
G1 X49.181 Y-125.696 Z-6.269
G1 X49.271 Y-125.79 Z-6.273
G1 X49.373 Y-125.873 Z-6.277
G1 X49.484 Y-125.943 Z-6.281
G1 X49.603 Y-125.999 Z-6.284
G1 X49.727 Y-126.04 Z-6.288
G1 X49.856 Y-126.065 Z-6.292
G1 X49.986 Y-126.075 Z-6.296
G1 X50.117 Y-126.069 Z-6.299
G1 X50.247 Y-126.046 Z-6.303
G1 X50.372 Y-126.009 Z-6.307
G1 X50.492 Y-125.956 Z-6.311
G1 X50.605 Y-125.889 Z-6.314
G1 X50.708 Y-125.809 Z-6.318
G1 X50.801 Y-125.716 Z-6.322
G1 X50.883 Y-125.614 Z-6.326
G1 X50.951 Y-125.502 Z-6.329
G1 X51.005 Y-125.382 Z-6.333
G1 X51.044 Y-125.257 Z-6.337
G1 X51.067 Y-125.128 Z-6.341
G1 X51.075 Y-124.997 Z-6.344
G1 X51.067 Y-124.866 Z-6.348
G1 X51.042 Y-124.738 Z-6.352
G1 X51.003 Y-124.613 Z-6.356
G1 X50.948 Y-124.493 Z-6.359
G1 X50.879 Y-124.382 Z-6.363
G1 X50.798 Y-124.279 Z-6.367
G1 X50.704 Y-124.188 Z-6.371
G1 X50.6 Y-124.108 Z-6.374
G1 X50.487 Y-124.042 Z-6.378
G1 X50.367 Y-123.989 Z-6.382
G1 X50.241 Y-123.952 Z-6.386
G1 X50.112 Y-123.931 Z-6.389
G1 X49.981 Y-123.925 Z-6.393
G1 X49.85 Y-123.936 Z-6.397
G1 X49.722 Y-123.962 Z-6.401
G1 X49.597 Y-124.003 Z-6.404
G1 X49.479 Y-124.06 Z-6.408
G1 X49.368 Y-124.13 Z-6.412
G1 X49.267 Y-124.213 Z-6.416
G1 X49.177 Y-124.308 Z-6.419
G1 X49.099 Y-124.414 Z-6.423
G1 X49.034 Y-124.528 Z-6.427
G1 X48.984 Y-124.649 Z-6.431
G1 X48.949 Y-124.775 Z-6.434
G1 X48.929 Y-124.905 Z-6.438
G1 X48.926 Y-125.036 Z-6.442
G1 X48.938 Y-125.166 Z-6.446
G1 X48.966 Y-125.294 Z-6.449
G1 X49.01 Y-125.418 Z-6.453
G1 X49.068 Y-125.535 Z-6.457
G1 X49.14 Y-125.645 Z-6.461
G1 X49.225 Y-125.745 Z-6.464
G1 X49.321 Y-125.833 Z-6.468
G1 X49.428 Y-125.91 Z-6.472
G1 X49.543 Y-125.973 Z-6.476
G1 X49.664 Y-126.021 Z-6.48
G1 X49.791 Y-126.055 Z-6.483
G1 X49.921 Y-126.072 Z-6.487
G1 X50.052 Y-126.074 Z-6.491
G1 X50.182 Y-126.059 Z-6.495
G1 X50.31 Y-126.029 Z-6.498
G1 X50.433 Y-125.984 Z-6.502
G1 X50.549 Y-125.924 Z-6.506
G1 X50.658 Y-125.85 Z-6.51
G1 X50.756 Y-125.764 Z-6.513
G1 X50.844 Y-125.666 Z-6.517
G1 X50.919 Y-125.559 Z-6.521
G1 X50.98 Y-125.443 Z-6.525
G1 X51.026 Y-125.32 Z-6.528
G1 X51.058 Y-125.193 Z-6.532
G1 X51.073 Y-125.063 Z-6.536
G1 Y-124.932 Z-6.54
G1 X51.057 Y-124.802 Z-6.543
G1 X51.025 Y-124.674 Z-6.547
G1 X50.977 Y-124.552 Z-6.551
G1 X50.915 Y-124.437 Z-6.555
G1 X50.84 Y-124.329 Z-6.558
G1 X50.752 Y-124.232 Z-6.562
G1 X50.653 Y-124.146 Z-6.566
G1 X50.544 Y-124.073 Z-6.57
G1 X50.428 Y-124.014 Z-6.573
G1 X50.304 Y-123.969 Z-6.577
G1 X50.177 Y-123.94 Z-6.581
G1 X50.046 Y-123.926 Z-6.585
G1 X49.915 Y-123.928 Z-6.588
G1 X49.785 Y-123.947 Z-6.592
G1 X49.659 Y-123.981 Z-6.596
G1 X49.537 Y-124.03 Z-6.6
G1 X49.423 Y-124.093 Z-6.603
G1 X49.317 Y-124.17 Z-6.607
G1 X49.221 Y-124.26 Z-6.611
G1 X49.136 Y-124.36 Z-6.615
G1 X49.065 Y-124.47 Z-6.618
G1 X49.007 Y-124.588 Z-6.622
G1 X48.964 Y-124.711 Z-6.626
G1 X48.937 Y-124.84 Z-6.63
G1 X48.925 Y-124.97 Z-6.633
G1 X48.93 Y-125.101 Z-6.637
G1 X48.95 Y-125.231 Z-6.641
G1 X48.986 Y-125.357 Z-6.645
G1 X49.037 Y-125.477 Z-6.648
G1 X49.102 Y-125.591 Z-6.652
G1 X49.181 Y-125.696 Z-6.656
G1 X49.272 Y-125.791 Z-6.66
G1 X49.373 Y-125.873 Z-6.663
G1 X49.484 Y-125.943 Z-6.667
G1 X49.603 Y-125.999 Z-6.671
G1 X49.727 Y-126.04 Z-6.675
G1 X49.856 Y-126.065 Z-6.678
G1 X49.987 Y-126.075 Z-6.682
G1 X50.117 Y-126.069 Z-6.686
G1 X50.247 Y-126.046 Z-6.69
G1 X50.372 Y-126.009 Z-6.693
G1 X50.492 Y-125.956 Z-6.697
G1 X50.605 Y-125.889 Z-6.701
G1 X50.708 Y-125.809 Z-6.705
G1 X50.802 Y-125.716 Z-6.708
G1 X50.883 Y-125.613 Z-6.712
G1 X50.951 Y-125.501 Z-6.716
G1 X51.005 Y-125.382 Z-6.72
G1 X51.044 Y-125.257 Z-6.723
G1 X51.067 Y-125.128 Z-6.727
G1 X51.075 Y-124.997 Z-6.731
G1 X51.067 Y-124.866 Z-6.735
G1 X51.042 Y-124.737 Z-6.738
G1 X51.003 Y-124.612 Z-6.742
G1 X50.948 Y-124.493 Z-6.746
G1 X50.879 Y-124.382 Z-6.75
G1 X50.798 Y-124.279 Z-6.753
G1 X50.704 Y-124.188 Z-6.757
G1 X50.6 Y-124.108 Z-6.761
G1 X50.487 Y-124.042 Z-6.765
G1 X50.367 Y-123.989 Z-6.768
G1 X50.241 Y-123.952 Z-6.772
G1 X50.112 Y-123.931 Z-6.776
G1 X49.981 Y-123.925 Z-6.78
G1 X49.85 Y-123.936 Z-6.783
G1 X49.722 Y-123.962 Z-6.787
G1 X49.597 Y-124.003 Z-6.791
G1 X49.479 Y-124.06 Z-6.795
G1 X49.368 Y-124.13 Z-6.798
G1 X49.267 Y-124.213 Z-6.802
G1 X49.177 Y-124.309 Z-6.806
G1 X49.099 Y-124.414 Z-6.81
G1 X49.034 Y-124.528 Z-6.814
G1 X48.984 Y-124.649 Z-6.817
G1 X48.949 Y-124.775 Z-6.821
G1 X48.929 Y-124.905 Z-6.825
G1 X48.926 Y-125.036 Z-6.829
G1 X48.938 Y-125.166 Z-6.832
G1 X48.966 Y-125.294 Z-6.836
G1 X49.01 Y-125.418 Z-6.84
G1 X49.068 Y-125.535 Z-6.844
G1 X49.14 Y-125.645 Z-6.847
G1 X49.225 Y-125.745 Z-6.851
G1 X49.321 Y-125.834 Z-6.855
G1 X49.428 Y-125.91 Z-6.859
G1 X49.543 Y-125.973 Z-6.862
G1 X49.664 Y-126.021 Z-6.866
G1 X49.791 Y-126.055 Z-6.87
G1 X49.921 Y-126.072 Z-6.874
G1 X50.052 Y-126.074 Z-6.877
G1 X50.182 Y-126.059 Z-6.881
G1 X50.31 Y-126.029 Z-6.885
G1 X50.433 Y-125.984 Z-6.889
G1 X50.55 Y-125.924 Z-6.892
G1 X50.658 Y-125.85 Z-6.896
G1 X50.756 Y-125.764 Z-6.9
G1 X50.844 Y-125.666 Z-6.904
G1 X50.919 Y-125.558 Z-6.907
G1 X50.98 Y-125.442 Z-6.911
G1 X51.026 Y-125.32 Z-6.915
G1 X51.058 Y-125.193 Z-6.919
G1 X51.073 Y-125.062 Z-6.922
G1 Y-124.931 Z-6.926
G1 X51.056 Y-124.801 Z-6.93
G1 X51.024 Y-124.674 Z-6.934
G1 X50.977 Y-124.552 Z-6.937
G1 X50.915 Y-124.436 Z-6.941
G1 X50.84 Y-124.329 Z-6.945
G1 X50.752 Y-124.232 Z-6.949
G1 X50.653 Y-124.146 Z-6.952
G1 X50.544 Y-124.073 Z-6.956
G1 X50.427 Y-124.014 Z-6.96
G1 X50.304 Y-123.969 Z-6.964
G1 X50.176 Y-123.94 Z-6.967
G1 X50.046 Y-123.926 Z-6.971
G1 X49.915 Y-123.928 Z-6.975
G1 X49.785 Y-123.947 Z-6.979
G1 X49.659 Y-123.981 Z-6.982
G1 X49.537 Y-124.03 Z-6.986
G1 X49.422 Y-124.093 Z-6.99
G1 X49.316 Y-124.17 Z-6.994
G1 X49.221 Y-124.26 Z-6.997
G1 X49.136 Y-124.36 Z-7.001
G1 X49.065 Y-124.47 Z-7.005
G1 X49.007 Y-124.588 Z-7.009
G1 X48.964 Y-124.712 Z-7.012
G1 X48.937 Y-124.84 Z-7.016
G1 X48.925 Y-124.97 Z-7.02
G1 X48.93 Y-125.101 Z-7.024
G1 X48.95 Y-125.231 Z-7.027
G1 X48.986 Y-125.357 Z-7.031
G1 X49.037 Y-125.478 Z-7.035
G1 X49.102 Y-125.591 Z-7.039
G1 X49.181 Y-125.696 Z-7.042
G1 X49.272 Y-125.791 Z-7.046
G1 X49.373 Y-125.873 Z-7.05
G1 X49.484 Y-125.943 Z-7.054
G1 X49.603 Y-125.999 Z-7.057
G1 X49.727 Y-126.04 Z-7.061
G1 X49.856 Y-126.065 Z-7.065
G1 X49.987 Y-126.075 Z-7.069
G1 X50.118 Y-126.069 Z-7.072
G1 X50.247 Y-126.046 Z-7.076
G1 X50.372 Y-126.008 Z-7.08
G1 X50.492 Y-125.956 Z-7.084
G1 X50.605 Y-125.889 Z-7.087
G1 X50.709 Y-125.808 Z-7.091
G1 X50.802 Y-125.716 Z-7.095
G1 X50.883 Y-125.613 Z-7.099
G1 X50.951 Y-125.501 Z-7.102
G1 X51.005 Y-125.382 Z-7.106
G1 X51.044 Y-125.257 Z-7.11
G1 X51.067 Y-125.128 Z-7.114
G1 X51.075 Y-124.997 Z-7.117
G1 X51.067 Y-124.866 Z-7.121
G1 X51.042 Y-124.737 Z-7.125
G1 X51.003 Y-124.612 Z-7.129
G1 X50.948 Y-124.493 Z-7.133
G1 X50.879 Y-124.382 Z-7.136
G1 X50.798 Y-124.279 Z-7.14
G1 X50.704 Y-124.187 Z-7.144
G1 X50.6 Y-124.108 Z-7.148
G1 X50.487 Y-124.041 Z-7.151
G1 X50.366 Y-123.989 Z-7.155
G1 X50.241 Y-123.952 Z-7.159
G1 X50.111 Y-123.931 Z-7.163
G1 X49.98 Y-123.925 Z-7.166
G1 X49.85 Y-123.936 Z-7.17
G1 X49.721 Y-123.962 Z-7.174
G1 X49.597 Y-124.003 Z-7.178
G1 X49.479 Y-124.06 Z-7.181
G1 X49.368 Y-124.13 Z-7.185
G1 X49.267 Y-124.214 Z-7.189
G1 X49.177 Y-124.309 Z-7.193
G1 X49.099 Y-124.414 Z-7.196
G1 X49.034 Y-124.528 Z-7.2
G1 X48.984 Y-124.649 Z-7.204
G1 X48.949 Y-124.775 Z-7.208
G1 X48.929 Y-124.905 Z-7.211
G1 X48.926 Y-125.036 Z-7.215
G1 X48.938 Y-125.166 Z-7.219
G1 X48.966 Y-125.294 Z-7.223
G1 X49.01 Y-125.418 Z-7.226
G1 X49.068 Y-125.536 Z-7.23
G1 X49.14 Y-125.645 Z-7.234
G1 X49.225 Y-125.745 Z-7.238
G1 X49.321 Y-125.834 Z-7.241
G1 X49.428 Y-125.91 Z-7.245
G1 X49.543 Y-125.973 Z-7.249
G1 X49.665 Y-126.021 Z-7.253
G1 X49.791 Y-126.055 Z-7.256
G1 X49.921 Y-126.072 Z-7.26
G1 X50.052 Y-126.074 Z-7.264
G1 X50.183 Y-126.059 Z-7.268
G1 X50.31 Y-126.029 Z-7.271
G1 X50.433 Y-125.984 Z-7.275
G1 X50.55 Y-125.924 Z-7.279
G1 X50.658 Y-125.85 Z-7.283
G1 X50.757 Y-125.764 Z-7.286
G1 X50.844 Y-125.666 Z-7.29
G1 X50.919 Y-125.558 Z-7.294
G1 X50.98 Y-125.442 Z-7.298
G1 X51.026 Y-125.32 Z-7.301
G1 X51.058 Y-125.192 Z-7.305
G1 X51.073 Y-125.062 Z-7.309
G1 Y-124.931 Z-7.313
G1 X51.056 Y-124.801 Z-7.316
G1 X51.024 Y-124.674 Z-7.32
G1 X50.977 Y-124.552 Z-7.324
G1 X50.915 Y-124.436 Z-7.328
G1 X50.84 Y-124.329 Z-7.331
G1 X50.752 Y-124.232 Z-7.335
G1 X50.653 Y-124.146 Z-7.339
G1 X50.544 Y-124.073 Z-7.343
G1 X50.427 Y-124.014 Z-7.346
G1 X50.304 Y-123.969 Z-7.35
G1 X50.176 Y-123.94 Z-7.354
G1 X50.046 Y-123.926 Z-7.358
G1 X49.915 Y-123.928 Z-7.361
G1 X49.785 Y-123.947 Z-7.365
G1 X49.659 Y-123.981 Z-7.369
G1 X49.537 Y-124.03 Z-7.373
G1 X49.422 Y-124.093 Z-7.376
G1 X49.316 Y-124.17 Z-7.38
G1 X49.22 Y-124.26 Z-7.384
G1 X49.136 Y-124.36 Z-7.388
G1 X49.065 Y-124.47 Z-7.391
G1 X49.007 Y-124.588 Z-7.395
G1 X48.964 Y-124.712 Z-7.399
G1 X48.937 Y-124.84 Z-7.403
G1 X48.925 Y-124.97 Z-7.406
G1 X48.93 Y-125.101 Z-7.41
G1 X48.95 Y-125.231 Z-7.414
G1 X48.986 Y-125.357 Z-7.418
G1 X49.037 Y-125.478 Z-7.421
G1 X49.102 Y-125.591 Z-7.425
G1 X49.181 Y-125.696 Z-7.429
G1 X49.272 Y-125.791 Z-7.433
G1 X49.373 Y-125.874 Z-7.436
G1 X49.484 Y-125.943 Z-7.44
G1 X49.603 Y-125.999 Z-7.444
G1 X49.728 Y-126.04 Z-7.448
G1 X49.856 Y-126.065 Z-7.452
G1 X49.987 Y-126.075 Z-7.455
G1 X50.118 Y-126.069 Z-7.459
G1 X50.247 Y-126.046 Z-7.463
G1 X50.372 Y-126.008 Z-7.467
G1 X50.492 Y-125.956 Z-7.47
G1 X50.605 Y-125.889 Z-7.474
G1 X50.709 Y-125.808 Z-7.478
G1 X50.802 Y-125.716 Z-7.482
G1 X50.883 Y-125.613 Z-7.485
G1 X50.951 Y-125.501 Z-7.489
G1 X51.005 Y-125.382 Z-7.493
G1 X51.044 Y-125.257 Z-7.497
G1 X51.067 Y-125.128 Z-7.5
G1 X51.075 Y-124.997 Z-7.504
G1 X51.067 Y-124.866 Z-7.508
G1 X51.042 Y-124.737 Z-7.512
G1 X51.003 Y-124.612 Z-7.515
G1 X50.948 Y-124.493 Z-7.519
G1 X50.879 Y-124.381 Z-7.523
G1 X50.797 Y-124.279 Z-7.527
G1 X50.704 Y-124.187 Z-7.53
G1 X50.6 Y-124.108 Z-7.534
G1 X50.487 Y-124.041 Z-7.538
G1 X50.366 Y-123.989 Z-7.542
G1 X50.241 Y-123.952 Z-7.545
G1 X50.111 Y-123.931 Z-7.549
G1 X49.98 Y-123.925 Z-7.553
G1 X49.85 Y-123.936 Z-7.557
G1 X49.721 Y-123.962 Z-7.56
G1 X49.597 Y-124.003 Z-7.564
G1 X49.479 Y-124.06 Z-7.568
G1 X49.368 Y-124.13 Z-7.572
G1 X49.267 Y-124.214 Z-7.575
G1 X49.177 Y-124.309 Z-7.579
G1 X49.099 Y-124.414 Z-7.583
G1 X49.034 Y-124.528 Z-7.587
G1 X48.984 Y-124.649 Z-7.59
G1 X48.949 Y-124.775 Z-7.594
G1 X48.929 Y-124.905 Z-7.598
G1 X48.926 Y-125.036 Z-7.602
G1 X48.938 Y-125.167 Z-7.605
G1 X48.966 Y-125.295 Z-7.609
G1 X49.01 Y-125.418 Z-7.613
G1 X49.068 Y-125.536 Z-7.617
G1 X49.14 Y-125.645 Z-7.62
G1 X49.225 Y-125.745 Z-7.624
G1 X49.321 Y-125.834 Z-7.628
G1 X49.428 Y-125.91 Z-7.632
G1 X49.543 Y-125.973 Z-7.635
G1 X49.665 Y-126.021 Z-7.639
G1 X49.792 Y-126.055 Z-7.643
G1 X49.921 Y-126.072 Z-7.647
G1 X50.053 Y-126.074 Z-7.65
G1 X50.183 Y-126.059 Z-7.654
G1 X50.31 Y-126.029 Z-7.658
G1 X50.433 Y-125.984 Z-7.662
G1 X50.55 Y-125.924 Z-7.665
G1 X50.658 Y-125.85 Z-7.669
G1 X50.757 Y-125.764 Z-7.673
G1 X50.844 Y-125.666 Z-7.677
G1 X50.919 Y-125.558 Z-7.68
G1 X50.98 Y-125.442 Z-7.684
G1 X51.026 Y-125.32 Z-7.688
G1 X51.058 Y-125.192 Z-7.692
G1 X51.073 Y-125.062 Z-7.695
G1 Y-124.931 Z-7.699
G1 X51.056 Y-124.801 Z-7.703
G1 X51.024 Y-124.674 Z-7.707
G1 X50.977 Y-124.552 Z-7.71
G1 X50.915 Y-124.436 Z-7.714
G1 X50.84 Y-124.329 Z-7.718
G1 X50.752 Y-124.232 Z-7.722
G1 X50.653 Y-124.146 Z-7.725
G1 X50.544 Y-124.073 Z-7.729
G1 X50.427 Y-124.014 Z-7.733
G1 X50.304 Y-123.969 Z-7.737
G1 X50.176 Y-123.94 Z-7.74
G1 X50.046 Y-123.926 Z-7.744
G1 X49.915 Y-123.928 Z-7.748
G1 X49.785 Y-123.947 Z-7.752
G1 X49.658 Y-123.981 Z-7.755
G1 X49.537 Y-124.03 Z-7.759
G1 X49.422 Y-124.093 Z-7.763
G1 X49.316 Y-124.171 Z-7.767
G1 X49.22 Y-124.26 Z-7.77
G1 X49.136 Y-124.36 Z-7.774
G1 X49.065 Y-124.47 Z-7.778
G1 X49.007 Y-124.588 Z-7.782
G1 X48.964 Y-124.712 Z-7.786
G1 X48.937 Y-124.84 Z-7.789
G1 X48.925 Y-124.971 Z-7.793
G1 X48.93 Y-125.102 Z-7.797
G1 X48.95 Y-125.231 Z-7.801
G1 X48.986 Y-125.357 Z-7.804
G1 X49.037 Y-125.478 Z-7.808
G1 X49.102 Y-125.592 Z-7.812
G1 X49.181 Y-125.696 Z-7.816
G1 X49.272 Y-125.791 Z-7.819
G1 X49.374 Y-125.874 Z-7.823
G1 X49.485 Y-125.943 Z-7.827
G1 X49.603 Y-125.999 Z-7.831
G1 X49.728 Y-126.04 Z-7.834
G1 X49.856 Y-126.065 Z-7.838
G1 X49.987 Y-126.075 Z-7.842
G1 X50.118 Y-126.069 Z-7.846
G1 X50.247 Y-126.046 Z-7.849
G1 X50.373 Y-126.008 Z-7.853
G1 X50.493 Y-125.956 Z-7.857
G1 X50.605 Y-125.888 Z-7.861
G1 X50.709 Y-125.808 Z-7.864
G1 X50.802 Y-125.716 Z-7.868
G1 X50.883 Y-125.613 Z-7.872
G1 X50.951 Y-125.501 Z-7.876
G1 X51.005 Y-125.382 Z-7.879
G1 X51.044 Y-125.256 Z-7.883
G1 X51.067 Y-125.127 Z-7.887
G1 X51.075 Y-124.997 Z-7.891
G1 X51.067 Y-124.866 Z-7.894
G1 X51.042 Y-124.737 Z-7.898
G1 X51.003 Y-124.612 Z-7.902
G1 X50.948 Y-124.493 Z-7.906
G1 X50.879 Y-124.381 Z-7.909
G1 X50.797 Y-124.279 Z-7.913
G1 X50.704 Y-124.187 Z-7.917
G1 X50.599 Y-124.108 Z-7.921
G1 X50.486 Y-124.041 Z-7.924
G1 X50.366 Y-123.989 Z-7.928
G1 X50.24 Y-123.952 Z-7.932
G1 X50.111 Y-123.931 Z-7.936
G1 X49.98 Y-123.925 Z-7.939
G1 X49.849 Y-123.936 Z-7.943
G1 X49.721 Y-123.962 Z-7.947
G1 X49.597 Y-124.003 Z-7.951
G1 X49.479 Y-124.06 Z-7.954
G1 X49.368 Y-124.13 Z-7.958
G1 X49.267 Y-124.214 Z-7.962
G1 X49.177 Y-124.309 Z-7.966
G1 X49.099 Y-124.414 Z-7.969
G1 X49.034 Y-124.528 Z-7.973
G1 X48.984 Y-124.649 Z-7.977
G1 X48.949 Y-124.776 Z-7.981
G1 X48.929 Y-124.905 Z-7.984
G1 X48.926 Y-125.036 Z-7.988
G1 X48.938 Y-125.167 Z-7.992
G1 X48.966 Y-125.295 Z-7.996
G1 X49.01 Y-125.418 Z-7.999
G1 X49.068 Y-125.536 Z-8.003
G1 X49.14 Y-125.645 Z-8.007
G1 X49.225 Y-125.745 Z-8.011
G1 X49.322 Y-125.834 Z-8.014
G1 X49.428 Y-125.91 Z-8.018
G1 X49.543 Y-125.973 Z-8.022
G1 X49.665 Y-126.021 Z-8.026
G1 X49.792 Y-126.055 Z-8.029
G1 X49.922 Y-126.072 Z-8.033
G1 X50.053 Y-126.074 Z-8.037
G1 X50.183 Y-126.059 Z-8.041
G1 X50.31 Y-126.029 Z-8.044
G1 X50.433 Y-125.984 Z-8.048
G1 X50.55 Y-125.924 Z-8.052
G1 X50.658 Y-125.85 Z-8.056
G1 X50.757 Y-125.763 Z-8.059
G1 X50.844 Y-125.666 Z-8.063
G1 X50.919 Y-125.558 Z-8.067
G1 X50.98 Y-125.442 Z-8.071
G1 X51.026 Y-125.319 Z-8.074
G1 X51.058 Y-125.192 Z-8.078
G1 X51.073 Y-125.062 Z-8.082
G1 Y-124.931 Z-8.086
G1 X51.056 Y-124.801 Z-8.089
G1 X51.024 Y-124.674 Z-8.093
G1 X50.977 Y-124.552 Z-8.097
G1 X50.915 Y-124.436 Z-8.101
G1 X50.84 Y-124.329 Z-8.105
G1 X50.752 Y-124.232 Z-8.108
G1 X50.653 Y-124.146 Z-8.112
G1 X50.544 Y-124.073 Z-8.116
G1 X50.427 Y-124.013 Z-8.12
G1 X50.304 Y-123.969 Z-8.123
G1 X50.176 Y-123.94 Z-8.127
G1 X50.046 Y-123.926 Z-8.131
G1 X49.915 Y-123.928 Z-8.135
G1 X49.785 Y-123.947 Z-8.138
G1 X49.658 Y-123.981 Z-8.142
G1 X49.537 Y-124.03 Z-8.146
G1 X49.422 Y-124.094 Z-8.15
G1 X49.316 Y-124.171 Z-8.153
G1 X49.22 Y-124.26 Z-8.157
G1 X49.136 Y-124.36 Z-8.161
G1 X49.065 Y-124.47 Z-8.165
G1 X49.007 Y-124.588 Z-8.168
G1 X48.964 Y-124.712 Z-8.172
G1 X48.937 Y-124.84 Z-8.176
G1 X48.925 Y-124.971 Z-8.18
G1 X48.93 Y-125.102 Z-8.183
G1 X48.95 Y-125.231 Z-8.187
G1 X48.986 Y-125.357 Z-8.191
G1 X49.037 Y-125.478 Z-8.195
G1 X49.102 Y-125.592 Z-8.198
G1 X49.181 Y-125.696 Z-8.202
G1 X49.272 Y-125.791 Z-8.206
G1 X49.374 Y-125.874 Z-8.21
G1 X49.485 Y-125.943 Z-8.213
G1 X49.603 Y-125.999 Z-8.217
G1 X49.728 Y-126.04 Z-8.221
G1 X49.856 Y-126.065 Z-8.225
G1 X49.987 Y-126.075 Z-8.228
G1 X50.118 Y-126.068 Z-8.232
G1 X50.247 Y-126.046 Z-8.236
G1 X50.373 Y-126.008 Z-8.24
G1 X50.493 Y-125.955 Z-8.243
G1 X50.605 Y-125.888 Z-8.247
G1 X50.709 Y-125.808 Z-8.251
G1 X50.802 Y-125.716 Z-8.255
G1 X50.883 Y-125.613 Z-8.258
G1 X50.951 Y-125.501 Z-8.262
G1 X51.005 Y-125.381 Z-8.266
G1 X51.044 Y-125.256 Z-8.27
G1 X51.067 Y-125.127 Z-8.273
G1 X51.075 Y-124.996 Z-8.277
G1 X51.067 Y-124.866 Z-8.281
G1 X51.042 Y-124.737 Z-8.285
G1 X51.003 Y-124.612 Z-8.288
G1 X50.948 Y-124.493 Z-8.292
G1 X50.879 Y-124.381 Z-8.296
G1 X50.797 Y-124.279 Z-8.3
G1 X50.704 Y-124.187 Z-8.303
G1 X50.599 Y-124.108 Z-8.307
G1 X50.486 Y-124.041 Z-8.311
G1 X50.366 Y-123.989 Z-8.315
G1 X50.24 Y-123.952 Z-8.318
G1 X50.111 Y-123.931 Z-8.322
G1 X49.98 Y-123.925 Z-8.326
G1 X49.849 Y-123.936 Z-8.33
G1 X49.721 Y-123.962 Z-8.333
G1 X49.597 Y-124.004 Z-8.337
G1 X49.478 Y-124.06 Z-8.341
G1 X49.368 Y-124.131 Z-8.345
G1 X49.267 Y-124.214 Z-8.348
G1 X49.177 Y-124.309 Z-8.352
G1 X49.099 Y-124.414 Z-8.356
G1 X49.034 Y-124.528 Z-8.36
G1 X48.984 Y-124.649 Z-8.363
G1 X48.949 Y-124.776 Z-8.367
G1 X48.929 Y-124.905 Z-8.371
G1 X48.926 Y-125.036 Z-8.375
G1 X48.938 Y-125.167 Z-8.378
G1 X48.966 Y-125.295 Z-8.382
G1 X49.01 Y-125.419 Z-8.386
G1 X49.068 Y-125.536 Z-8.39
G1 X49.14 Y-125.645 Z-8.393
G1 X49.225 Y-125.745 Z-8.397
G1 X49.322 Y-125.834 Z-8.401
G1 X49.428 Y-125.91 Z-8.405
G1 X49.543 Y-125.973 Z-8.408
G1 X49.665 Y-126.021 Z-8.412
G1 X49.792 Y-126.055 Z-8.416
G1 X49.922 Y-126.072 Z-8.42
G1 X50.053 Y-126.074 Z-8.423
G1 X50.183 Y-126.059 Z-8.427
G1 X50.311 Y-126.029 Z-8.431
G1 X50.434 Y-125.984 Z-8.435
G1 X50.55 Y-125.924 Z-8.439
G1 X50.658 Y-125.85 Z-8.442
G1 X50.757 Y-125.763 Z-8.446
G1 X50.844 Y-125.666 Z-8.45
G1 X50.919 Y-125.558 Z-8.454
G1 X50.98 Y-125.442 Z-8.457
G1 X51.026 Y-125.319 Z-8.461
G1 X51.058 Y-125.192 Z-8.465
G1 X51.073 Y-125.062 Z-8.469
G1 Y-124.931 Z-8.472
G1 X51.056 Y-124.801 Z-8.476
G1 X51.024 Y-124.674 Z-8.48
G1 X50.977 Y-124.551 Z-8.484
G1 X50.915 Y-124.436 Z-8.487
G1 X50.84 Y-124.329 Z-8.491
G1 X50.752 Y-124.232 Z-8.495
G1 X50.653 Y-124.146 Z-8.499
G1 X50.544 Y-124.073 Z-8.502
G1 X50.427 Y-124.013 Z-8.506
G1 X50.304 Y-123.969 Z-8.51
G1 X50.176 Y-123.939 Z-8.514
G1 X50.045 Y-123.926 Z-8.517
G1 X49.914 Y-123.928 Z-8.521
G1 X49.785 Y-123.947 Z-8.525
G1 X49.658 Y-123.981 Z-8.529
G1 X49.537 Y-124.03 Z-8.532
G1 X49.422 Y-124.094 Z-8.536
G1 X49.316 Y-124.171 Z-8.54
G1 X49.22 Y-124.26 Z-8.544
G1 X49.136 Y-124.361 Z-8.547
G1 X49.064 Y-124.47 Z-8.551
G1 X49.007 Y-124.588 Z-8.555
G1 X48.964 Y-124.712 Z-8.559
G1 X48.937 Y-124.84 Z-8.562
G1 X48.925 Y-124.971 Z-8.566
G1 X48.93 Y-125.102 Z-8.57
G1 X48.95 Y-125.231 Z-8.574
G1 X48.986 Y-125.357 Z-8.577
G1 X49.037 Y-125.478 Z-8.581
G1 X49.103 Y-125.592 Z-8.585
G1 X49.181 Y-125.697 Z-8.589
G1 X49.272 Y-125.791 Z-8.592
G1 X49.374 Y-125.874 Z-8.596
G1 X49.485 Y-125.943 Z-8.6
G1 X49.603 Y-125.999 Z-8.604
G1 X49.728 Y-126.04 Z-8.607
G1 X49.857 Y-126.065 Z-8.611
G1 X49.987 Y-126.075 Z-8.615
G1 X50.118 Y-126.068 Z-8.619
G1 X50.247 Y-126.046 Z-8.622
G1 X50.373 Y-126.008 Z-8.626
G1 X50.493 Y-125.955 Z-8.63
G1 X50.605 Y-125.888 Z-8.634
G1 X50.709 Y-125.808 Z-8.637
G1 X50.802 Y-125.716 Z-8.641
G1 X50.883 Y-125.613 Z-8.645
G1 X50.951 Y-125.501 Z-8.649
G1 X51.005 Y-125.381 Z-8.652
G1 X51.044 Y-125.256 Z-8.656
G1 X51.067 Y-125.127 Z-8.66
G1 X51.075 Y-124.996 Z-8.664
G1 X51.067 Y-124.865 Z-8.667
G1 X51.042 Y-124.737 Z-8.671
G1 X51.002 Y-124.612 Z-8.675
G1 X50.948 Y-124.493 Z-8.679
G1 X50.879 Y-124.381 Z-8.682
G1 X50.797 Y-124.279 Z-8.686
G1 X50.703 Y-124.187 Z-8.69
G1 X50.599 Y-124.108 Z-8.694
G1 X50.486 Y-124.041 Z-8.697
G1 X50.366 Y-123.989 Z-8.701
G1 X50.24 Y-123.952 Z-8.705
G1 X50.111 Y-123.931 Z-8.709
G1 X49.98 Y-123.925 Z-8.712
G1 X49.849 Y-123.936 Z-8.716
G1 X49.721 Y-123.962 Z-8.72
G1 X49.597 Y-124.004 Z-8.724
G1 X49.478 Y-124.06 Z-8.727
G1 X49.368 Y-124.131 Z-8.731
G1 X49.267 Y-124.214 Z-8.735
G1 X49.176 Y-124.309 Z-8.739
G1 X49.098 Y-124.414 Z-8.742
G1 X49.034 Y-124.529 Z-8.746
G1 X48.984 Y-124.65 Z-8.75
G1 X48.949 Y-124.776 Z-8.754
G1 X48.929 Y-124.906 Z-8.758
G1 X48.926 Y-125.037 Z-8.761
G1 X48.938 Y-125.167 Z-8.765
G1 X48.966 Y-125.295 Z-8.769
G1 X49.01 Y-125.419 Z-8.773
G1 X49.068 Y-125.536 Z-8.776
G1 X49.14 Y-125.645 Z-8.78
G1 X49.225 Y-125.745 Z-8.784
G1 X49.322 Y-125.834 Z-8.788
G1 X49.428 Y-125.91 Z-8.791
G1 X49.543 Y-125.973 Z-8.795
G1 X49.665 Y-126.022 Z-8.799
G1 X49.792 Y-126.055 Z-8.803
G1 X49.922 Y-126.072 Z-8.806
G1 X50.053 Y-126.074 Z-8.81
G1 X50.183 Y-126.059 Z-8.814
G1 X50.311 Y-126.029 Z-8.818
G1 X50.434 Y-125.984 Z-8.821
G1 X50.55 Y-125.924 Z-8.825
G1 X50.659 Y-125.85 Z-8.829
G1 X50.757 Y-125.763 Z-8.833
G1 X50.844 Y-125.665 Z-8.836
G1 X50.919 Y-125.558 Z-8.84
G1 X50.98 Y-125.442 Z-8.844
G1 X51.027 Y-125.319 Z-8.848
G1 X51.058 Y-125.192 Z-8.851
G1 X51.073 Y-125.062 Z-8.855
G1 Y-124.931 Z-8.859
G1 X51.056 Y-124.801 Z-8.863
G1 X51.024 Y-124.674 Z-8.866
G1 X50.977 Y-124.551 Z-8.87
G1 X50.915 Y-124.436 Z-8.874
G1 X50.84 Y-124.329 Z-8.878
G1 X50.752 Y-124.231 Z-8.881
G1 X50.652 Y-124.146 Z-8.885
G1 X50.544 Y-124.073 Z-8.889
G1 X50.427 Y-124.013 Z-8.893
G1 X50.303 Y-123.969 Z-8.896
G1 X50.176 Y-123.939 Z-8.9
G1 X50.045 Y-123.926 Z-8.904
G1 X49.914 Y-123.928 Z-8.908
G1 X49.785 Y-123.947 Z-8.911
G1 X49.658 Y-123.981 Z-8.915
G1 X49.536 Y-124.03 Z-8.919
G1 X49.422 Y-124.094 Z-8.923
G1 X49.316 Y-124.171 Z-8.926
G1 X49.22 Y-124.26 Z-8.93
G1 X49.136 Y-124.361 Z-8.934
G1 X49.064 Y-124.471 Z-8.938
G1 X49.007 Y-124.588 Z-8.941
G1 X48.964 Y-124.712 Z-8.945
G1 X48.937 Y-124.84 Z-8.949
G1 X48.925 Y-124.971 Z-8.953
G1 X48.93 Y-125.102 Z-8.956
G1 X48.95 Y-125.232 Z-8.96
G1 X48.986 Y-125.358 Z-8.964
G1 X49.037 Y-125.478 Z-8.968
G1 X49.103 Y-125.592 Z-8.971
G1 X49.181 Y-125.697 Z-8.975
G1 X49.272 Y-125.791 Z-8.979
G1 X49.374 Y-125.874 Z-8.983
G1 X49.485 Y-125.944 Z-8.986
G1 X49.604 Y-125.999 Z-8.99
G1 X49.728 Y-126.04 Z-8.994
G1 X49.857 Y-126.065 Z-8.998
G1 X49.987 Y-126.075 Z-9.001
G1 X50.118 Y-126.068 Z-9.005
G1 X50.248 Y-126.046 Z-9.009
G1 X50.373 Y-126.008 Z-9.013
G1 X50.493 Y-125.955 Z-9.016
G1 X50.606 Y-125.888 Z-9.02
G1 X50.709 Y-125.808 Z-9.024
G1 X50.802 Y-125.716 Z-9.028
G1 X50.883 Y-125.613 Z-9.031
G1 X50.951 Y-125.501 Z-9.035
G1 X51.005 Y-125.381 Z-9.039
G1 X51.044 Y-125.256 Z-9.043
G1 X51.067 Y-125.127 Z-9.046
G1 X51.075 Y-124.996 Z-9.05
G1 X51.067 Y-124.865 Z-9.054
G1 X51.042 Y-124.737 Z-9.058
G1 X51.002 Y-124.612 Z-9.061
G1 X50.948 Y-124.493 Z-9.065
G1 X50.879 Y-124.381 Z-9.069
G1 X50.797 Y-124.279 Z-9.073
G1 X50.703 Y-124.187 Z-9.077
G1 X50.599 Y-124.107 Z-9.08
G1 X50.486 Y-124.041 Z-9.084
G1 X50.366 Y-123.989 Z-9.088
G1 X50.24 Y-123.952 Z-9.092
G1 X50.111 Y-123.931 Z-9.095
G1 X49.98 Y-123.925 Z-9.099
G1 X49.849 Y-123.936 Z-9.103
G1 X49.721 Y-123.962 Z-9.107
G1 X49.596 Y-124.004 Z-9.11
G1 X49.478 Y-124.06 Z-9.114
G1 X49.368 Y-124.131 Z-9.118
G1 X49.267 Y-124.214 Z-9.122
G1 X49.176 Y-124.309 Z-9.125
G1 X49.098 Y-124.415 Z-9.129
G1 X49.034 Y-124.529 Z-9.133
G1 X48.984 Y-124.65 Z-9.137
G1 X48.949 Y-124.776 Z-9.14
G1 X48.929 Y-124.906 Z-9.144
G1 X48.926 Y-125.037 Z-9.148
G1 X48.938 Y-125.167 Z-9.152
G1 X48.966 Y-125.295 Z-9.155
G1 X49.01 Y-125.419 Z-9.159
G1 X49.068 Y-125.536 Z-9.163
G1 X49.14 Y-125.646 Z-9.167
G1 X49.225 Y-125.745 Z-9.17
G1 X49.322 Y-125.834 Z-9.174
G1 X49.428 Y-125.91 Z-9.178
G1 X49.543 Y-125.973 Z-9.182
G1 X49.665 Y-126.022 Z-9.185
G1 X49.792 Y-126.055 Z-9.189
G1 X49.922 Y-126.072 Z-9.193
G1 X50.053 Y-126.074 Z-9.197
G1 X50.183 Y-126.059 Z-9.2
G1 X50.311 Y-126.029 Z-9.204
G1 X50.434 Y-125.984 Z-9.208
G1 X50.55 Y-125.923 Z-9.212
G1 X50.659 Y-125.85 Z-9.215
G1 X50.757 Y-125.763 Z-9.219
G1 X50.844 Y-125.665 Z-9.223
G1 X50.919 Y-125.558 Z-9.227
G1 X50.98 Y-125.442 Z-9.23
G1 X51.027 Y-125.319 Z-9.234
G1 X51.058 Y-125.192 Z-9.238
G1 X51.073 Y-125.062 Z-9.242
G1 Y-124.931 Z-9.245
G1 X51.056 Y-124.8 Z-9.249
G1 X51.024 Y-124.673 Z-9.253
G1 X50.977 Y-124.551 Z-9.257
G1 X50.915 Y-124.436 Z-9.26
G1 X50.839 Y-124.328 Z-9.264
G1 X50.751 Y-124.231 Z-9.268
G1 X50.652 Y-124.146 Z-9.272
G1 X50.544 Y-124.073 Z-9.275
G1 X50.427 Y-124.013 Z-9.279
G1 X50.303 Y-123.969 Z-9.283
G1 X50.176 Y-123.939 Z-9.287
G1 X50.045 Y-123.926 Z-9.29
G1 X49.914 Y-123.928 Z-9.294
G1 X49.784 Y-123.947 Z-9.298
G1 X49.658 Y-123.981 Z-9.302
G1 X49.536 Y-124.03 Z-9.305
G1 X49.422 Y-124.094 Z-9.309
G1 X49.316 Y-124.171 Z-9.313
G1 X49.22 Y-124.26 Z-9.317
G1 X49.136 Y-124.361 Z-9.32
G1 X49.064 Y-124.471 Z-9.324
G1 X49.007 Y-124.589 Z-9.328
G1 X48.964 Y-124.712 Z-9.332
G1 X48.937 Y-124.841 Z-9.335
G1 X48.925 Y-124.971 Z-9.339
G1 X48.93 Y-125.102 Z-9.343
G1 X48.95 Y-125.232 Z-9.347
G1 X48.986 Y-125.358 Z-9.35
G1 X49.037 Y-125.478 Z-9.354
G1 X49.103 Y-125.592 Z-9.358
G1 X49.181 Y-125.697 Z-9.362
G1 X49.272 Y-125.791 Z-9.365
G1 X49.374 Y-125.874 Z-9.369
G1 X49.485 Y-125.944 Z-9.373
G1 X49.604 Y-125.999 Z-9.377
G1 X49.728 Y-126.04 Z-9.38
G1 X49.857 Y-126.065 Z-9.384
G1 X49.988 Y-126.075 Z-9.388
G1 X50.119 Y-126.068 Z-9.392
G1 X50.248 Y-126.046 Z-9.395
G1 X50.373 Y-126.008 Z-9.399
G1 X50.493 Y-125.955 Z-9.403
G1 X50.606 Y-125.888 Z-9.407
G1 X50.709 Y-125.808 Z-9.411
G1 X50.802 Y-125.716 Z-9.414
G1 X50.883 Y-125.613 Z-9.418
G1 X50.951 Y-125.5 Z-9.422
G1 X51.005 Y-125.381 Z-9.426
G1 X51.044 Y-125.256 Z-9.429
G1 X51.067 Y-125.127 Z-9.433
G1 X51.075 Y-124.996 Z-9.437
G1 X51.067 Y-124.865 Z-9.441
G1 X51.042 Y-124.736 Z-9.444
G1 X51.002 Y-124.611 Z-9.448
G1 X50.948 Y-124.492 Z-9.452
G1 X50.879 Y-124.381 Z-9.456
G1 X50.797 Y-124.278 Z-9.459
G1 X50.703 Y-124.187 Z-9.463
G1 X50.599 Y-124.107 Z-9.467
G1 X50.486 Y-124.041 Z-9.471
G1 X50.366 Y-123.989 Z-9.474
G1 X50.24 Y-123.952 Z-9.478
G1 X50.111 Y-123.931 Z-9.482
G1 X49.98 Y-123.925 Z-9.486
G1 X49.849 Y-123.936 Z-9.489
G1 X49.72 Y-123.962 Z-9.493
G1 X49.596 Y-124.004 Z-9.497
G1 X49.478 Y-124.06 Z-9.501
G1 X49.368 Y-124.131 Z-9.504
G1 X49.266 Y-124.214 Z-9.508
G1 X49.176 Y-124.309 Z-9.512
G1 X49.098 Y-124.415 Z-9.516
G1 X49.034 Y-124.529 Z-9.519
G1 X48.984 Y-124.65 Z-9.523
G1 X48.949 Y-124.776 Z-9.527
G1 X48.929 Y-124.906 Z-9.531
G1 X48.926 Y-125.037 Z-9.534
G1 X48.938 Y-125.167 Z-9.538
G1 X48.966 Y-125.295 Z-9.542
G1 X49.01 Y-125.419 Z-9.546
G1 X49.068 Y-125.536 Z-9.549
G1 X49.141 Y-125.646 Z-9.553
G1 X49.225 Y-125.745 Z-9.557
G1 X49.322 Y-125.834 Z-9.561
G1 X49.429 Y-125.911 Z-9.564
G1 X49.544 Y-125.973 Z-9.568
G1 X49.665 Y-126.022 Z-9.572
G1 X49.792 Y-126.055 Z-9.576
G1 X49.922 Y-126.072 Z-9.579
G1 X50.053 Y-126.074 Z-9.583
G1 X50.184 Y-126.059 Z-9.587
G1 X50.311 Y-126.029 Z-9.591
G1 X50.434 Y-125.984 Z-9.594
G1 X50.55 Y-125.923 Z-9.598
G1 X50.659 Y-125.85 Z-9.602
G1 X50.757 Y-125.763 Z-9.606
G1 X50.844 Y-125.665 Z-9.609
G1 X50.919 Y-125.557 Z-9.613
G1 X50.98 Y-125.441 Z-9.617
G1 X51.027 Y-125.319 Z-9.621
G1 X51.058 Y-125.192 Z-9.624
G1 X51.073 Y-125.061 Z-9.628
G1 Y-124.93 Z-9.632
G1 X51.056 Y-124.8 Z-9.636
G1 X51.024 Y-124.673 Z-9.639
G1 X50.977 Y-124.551 Z-9.643
G1 X50.915 Y-124.436 Z-9.647
G1 X50.839 Y-124.328 Z-9.651
G1 X50.751 Y-124.231 Z-9.654
G1 X50.652 Y-124.145 Z-9.658
G1 X50.543 Y-124.072 Z-9.662
G1 X50.426 Y-124.013 Z-9.666
G1 X50.303 Y-123.969 Z-9.669
G1 X50.175 Y-123.939 Z-9.673
G1 X50.045 Y-123.926 Z-9.677
G1 X49.914 Y-123.928 Z-9.681
G1 X49.784 Y-123.947 Z-9.684
G1 X49.658 Y-123.981 Z-9.688
G1 X49.536 Y-124.03 Z-9.692
G1 X49.422 Y-124.094 Z-9.696
G1 X49.316 Y-124.171 Z-9.699
G1 X49.22 Y-124.26 Z-9.703
G1 X49.136 Y-124.361 Z-9.707
G1 X49.064 Y-124.471 Z-9.711
G1 X49.007 Y-124.589 Z-9.714
G1 X48.964 Y-124.713 Z-9.718
G1 X48.937 Y-124.841 Z-9.722
G1 X48.925 Y-124.971 Z-9.726
G1 X48.93 Y-125.102 Z-9.73
G1 X48.95 Y-125.232 Z-9.733
G1 X48.986 Y-125.358 Z-9.737
G1 X49.037 Y-125.479 Z-9.741
G1 X49.103 Y-125.592 Z-9.745
G1 X49.182 Y-125.697 Z-9.748
G1 X49.272 Y-125.791 Z-9.752
G1 X49.374 Y-125.874 Z-9.756
G1 X49.485 Y-125.944 Z-9.76
G1 X49.604 Y-125.999 Z-9.763
G1 X49.728 Y-126.04 Z-9.767
G1 X49.857 Y-126.065 Z-9.771
G1 X49.988 Y-126.075 Z-9.775
G1 X50.119 Y-126.068 Z-9.778
G1 X50.248 Y-126.046 Z-9.782
G1 X50.373 Y-126.008 Z-9.786
G1 X50.493 Y-125.955 Z-9.79
G1 X50.606 Y-125.888 Z-9.793
G1 X50.709 Y-125.808 Z-9.797
G1 X50.802 Y-125.715 Z-9.801
G1 X50.883 Y-125.612 Z-9.805
G1 X50.951 Y-125.5 Z-9.808
G1 X51.005 Y-125.381 Z-9.812
G1 X51.044 Y-125.256 Z-9.816
G1 X51.068 Y-125.127 Z-9.82
G1 X51.075 Y-124.996 Z-9.823
G1 X51.066 Y-124.865 Z-9.827
G1 X51.042 Y-124.736 Z-9.831
G1 X51.002 Y-124.611 Z-9.835
G1 X50.948 Y-124.492 Z-9.838
G1 X50.879 Y-124.381 Z-9.842
G1 X50.797 Y-124.278 Z-9.846
G1 X50.703 Y-124.187 Z-9.85
G1 X50.599 Y-124.107 Z-9.853
G1 X50.486 Y-124.041 Z-9.857
G1 X50.365 Y-123.989 Z-9.861
G1 X50.24 Y-123.952 Z-9.865
G1 X50.11 Y-123.931 Z-9.868
G1 X49.979 Y-123.925 Z-9.872
G1 X49.849 Y-123.936 Z-9.876
G1 X49.72 Y-123.962 Z-9.88
G1 X49.596 Y-124.004 Z-9.883
G1 X49.478 Y-124.06 Z-9.887
G1 X49.367 Y-124.131 Z-9.891
G1 X49.266 Y-124.214 Z-9.895
G1 X49.176 Y-124.309 Z-9.898
G1 X49.098 Y-124.415 Z-9.902
G1 X49.034 Y-124.529 Z-9.906
G1 X48.984 Y-124.65 Z-9.91
G1 X48.949 Y-124.776 Z-9.913
G1 X48.929 Y-124.906 Z-9.917
G1 X48.926 Y-125.037 Z-9.921
G1 X48.938 Y-125.167 Z-9.925
G1 X48.966 Y-125.295 Z-9.928
G1 X49.01 Y-125.419 Z-9.932
G1 X49.068 Y-125.536 Z-9.936
G1 X49.141 Y-125.646 Z-9.94
G1 X49.226 Y-125.746 Z-9.943
G1 X49.322 Y-125.834 Z-9.947
G1 X49.429 Y-125.911 Z-9.951
G1 X49.544 Y-125.973 Z-9.955
G1 X49.666 Y-126.022 Z-9.958
G1 X49.792 Y-126.055 Z-9.962
G1 X49.922 Y-126.072 Z-9.966
G1 X50.053 Y-126.074 Z-9.97
G1 X50.184 Y-126.059 Z-9.973
G1 X50.311 Y-126.029 Z-9.977
G1 X50.434 Y-125.983 Z-9.981
G1 X50.551 Y-125.923 Z-9.985
G1 X50.659 Y-125.849 Z-9.988
G1 X50.757 Y-125.763 Z-9.992
G1 X50.845 Y-125.665 Z-9.996
G1 X50.919 Y-125.557 Z-10
G1 X50.98 Y-125.441 Z-10.003
G1 X51.027 Y-125.319 Z-10.007
G1 X51.058 Y-125.191 Z-10.011
G1 X51.073 Y-125.061 Z-10.015
G1 Y-124.93 Z-10.018
G1 X51.056 Y-124.8 Z-10.022
G1 X51.024 Y-124.673 Z-10.026
G1 X50.977 Y-124.551 Z-10.03
G1 X50.915 Y-124.435 Z-10.033
G1 X50.839 Y-124.328 Z-10.037
G1 X50.751 Y-124.231 Z-10.041
G1 X50.652 Y-124.145 Z-10.045
G1 X50.543 Y-124.072 Z-10.048
G1 X50.426 Y-124.013 Z-10.052
G1 X50.303 Y-123.969 Z-10.056
G1 X50.175 Y-123.939 Z-10.06
G1 X50.045 Y-123.926 Z-10.064
G1 X49.914 Y-123.928 Z-10.067
G1 X49.784 Y-123.947 Z-10.071
G1 X49.658 Y-123.981 Z-10.075
G1 X49.536 Y-124.03 Z-10.079
G1 X49.421 Y-124.094 Z-10.082
G1 X49.316 Y-124.171 Z-10.086
G1 X49.22 Y-124.261 Z-10.09
G1 X49.136 Y-124.361 Z-10.094
G1 X49.064 Y-124.471 Z-10.097
G1 X49.007 Y-124.589 Z-10.101
G1 X48.964 Y-124.713 Z-10.105
G1 X48.937 Y-124.841 Z-10.109
G1 X48.925 Y-124.972 Z-10.112
G1 X48.93 Y-125.103 Z-10.116
G1 X48.95 Y-125.232 Z-10.12
G1 X48.986 Y-125.358 Z-10.124
G1 X49.037 Y-125.479 Z-10.127
G1 X49.103 Y-125.592 Z-10.131
G1 X49.182 Y-125.697 Z-10.135
G1 X49.273 Y-125.791 Z-10.139
G1 X49.374 Y-125.874 Z-10.142
G1 X49.485 Y-125.944 Z-10.146
G1 X49.604 Y-125.999 Z-10.15
G1 X49.729 Y-126.04 Z-10.154
G1 X49.857 Y-126.065 Z-10.157
G1 X49.988 Y-126.075 Z-10.161
G1 X50.119 Y-126.068 Z-10.165
G1 X50.248 Y-126.046 Z-10.169
G1 X50.373 Y-126.008 Z-10.172
G1 X50.493 Y-125.955 Z-10.176
G1 X50.606 Y-125.888 Z-10.18
G1 X50.709 Y-125.808 Z-10.184
G1 X50.802 Y-125.715 Z-10.187
G1 X50.884 Y-125.612 Z-10.191
G1 X50.952 Y-125.5 Z-10.195
G1 X51.005 Y-125.381 Z-10.199
G1 X51.044 Y-125.256 Z-10.202
G1 X51.068 Y-125.127 Z-10.206
G1 X51.075 Y-124.996 Z-10.21
G1 X51.066 Y-124.865 Z-10.214
G1 X51.042 Y-124.736 Z-10.217
G1 X51.002 Y-124.611 Z-10.221
G1 X50.947 Y-124.492 Z-10.225
G1 X50.879 Y-124.381 Z-10.229
G1 X50.797 Y-124.278 Z-10.232
G1 X50.703 Y-124.187 Z-10.236
G1 X50.599 Y-124.107 Z-10.24
G1 X50.486 Y-124.041 Z-10.244
G1 X50.365 Y-123.989 Z-10.247
G1 X50.24 Y-123.952 Z-10.251
G1 X50.11 Y-123.931 Z-10.255
G1 X49.979 Y-123.925 Z-10.259
G1 X49.849 Y-123.936 Z-10.262
G1 X49.72 Y-123.962 Z-10.266
G1 X49.596 Y-124.004 Z-10.27
G1 X49.478 Y-124.06 Z-10.274
G1 X49.367 Y-124.131 Z-10.277
G1 X49.266 Y-124.214 Z-10.281
G1 X49.176 Y-124.31 Z-10.285
G1 X49.098 Y-124.415 Z-10.289
G1 X49.034 Y-124.529 Z-10.292
G1 X48.984 Y-124.65 Z-10.296
G1 X48.948 Y-124.776 Z-10.3
G1 X48.929 Y-124.906 Z-10.304
G1 X48.926 Y-125.037 Z-10.307
G1 X48.938 Y-125.168 Z-10.311
G1 X48.966 Y-125.296 Z-10.315
G1 X49.01 Y-125.419 Z-10.319
G1 X49.068 Y-125.537 Z-10.322
G1 X49.141 Y-125.646 Z-10.326
G1 X49.226 Y-125.746 Z-10.33
G1 X49.322 Y-125.834 Z-10.334
G1 X49.429 Y-125.911 Z-10.337
G1 X49.544 Y-125.973 Z-10.341
G1 X49.666 Y-126.022 Z-10.345
G1 X49.793 Y-126.055 Z-10.349
G1 X49.922 Y-126.072 Z-10.352
G1 X50.054 Y-126.074 Z-10.356
G1 X50.184 Y-126.059 Z-10.36
G1 X50.311 Y-126.029 Z-10.364
G1 X50.434 Y-125.983 Z-10.367
G1 X50.551 Y-125.923 Z-10.371
G1 X50.659 Y-125.849 Z-10.375
G1 X50.757 Y-125.763 Z-10.379
G1 X50.845 Y-125.665 Z-10.383
G1 X50.919 Y-125.557 Z-10.386
G1 X50.98 Y-125.441 Z-10.39
G1 X51.027 Y-125.319 Z-10.394
G1 X51.058 Y-125.191 Z-10.398
G1 X51.073 Y-125.061 Z-10.401
G1 Y-124.93 Z-10.405
G1 X51.056 Y-124.8 Z-10.409
G1 X51.024 Y-124.673 Z-10.413
G1 X50.977 Y-124.551 Z-10.416
G1 X50.915 Y-124.435 Z-10.42
G1 X50.839 Y-124.328 Z-10.424
G1 X50.751 Y-124.231 Z-10.428
G1 X50.652 Y-124.145 Z-10.431
G1 X50.543 Y-124.072 Z-10.435
G1 X50.426 Y-124.013 Z-10.439
G1 X50.303 Y-123.969 Z-10.443
G1 X50.175 Y-123.939 Z-10.446
G1 X50.045 Y-123.926 Z-10.45
G1 X49.914 Y-123.928 Z-10.454
G1 X49.784 Y-123.947 Z-10.458
G1 X49.657 Y-123.981 Z-10.461
G1 X49.536 Y-124.03 Z-10.465
G1 X49.421 Y-124.094 Z-10.469
G1 X49.315 Y-124.171 Z-10.473
G1 X49.22 Y-124.261 Z-10.476
G1 X49.135 Y-124.361 Z-10.48
G1 X49.064 Y-124.471 Z-10.484
G1 X49.007 Y-124.589 Z-10.488
G1 X48.964 Y-124.713 Z-10.491
G1 X48.937 Y-124.841 Z-10.495
G1 X48.925 Y-124.972 Z-10.499
G1 X48.93 Y-125.103 Z-10.503
G1 X48.95 Y-125.232 Z-10.506
G1 X48.986 Y-125.358 Z-10.51
G1 X49.038 Y-125.479 Z-10.514
G1 X49.103 Y-125.592 Z-10.518
G1 X49.182 Y-125.697 Z-10.521
G1 X49.273 Y-125.792 Z-10.525
G1 X49.374 Y-125.874 Z-10.529
G1 X49.485 Y-125.944 Z-10.533
G1 X49.604 Y-125.999 Z-10.536
G1 X49.729 Y-126.04 Z-10.54
G1 X49.857 Y-126.065 Z-10.544
G1 X49.988 Y-126.075 Z-10.548
G1 X50.119 Y-126.068 Z-10.551
G1 X50.248 Y-126.046 Z-10.555
G1 X50.374 Y-126.008 Z-10.559
G1 X50.493 Y-125.955 Z-10.563
G1 X50.606 Y-125.888 Z-10.566
G1 X50.71 Y-125.808 Z-10.57
G1 X50.803 Y-125.715 Z-10.574
G1 X50.884 Y-125.612 Z-10.578
G1 X50.952 Y-125.5 Z-10.581
G1 X51.005 Y-125.381 Z-10.585
G1 X51.044 Y-125.255 Z-10.589
G1 X51.068 Y-125.126 Z-10.593
G1 X51.075 Y-124.996 Z-10.596
G1 X51.066 Y-124.865 Z-10.6
G1 X51.042 Y-124.736 Z-10.604
G1 X51.002 Y-124.611 Z-10.608
G1 X50.947 Y-124.492 Z-10.611
G1 X50.879 Y-124.38 Z-10.615
G1 X50.797 Y-124.278 Z-10.619
G1 X50.703 Y-124.187 Z-10.623
G1 X50.599 Y-124.107 Z-10.626
G1 X50.485 Y-124.041 Z-10.63
G1 X50.365 Y-123.989 Z-10.634
G1 X50.239 Y-123.952 Z-10.638
G1 X50.11 Y-123.931 Z-10.641
G1 X49.979 Y-123.925 Z-10.645
G1 X49.848 Y-123.936 Z-10.649
G1 X49.72 Y-123.962 Z-10.653
G1 X49.596 Y-124.004 Z-10.656
G1 X49.478 Y-124.06 Z-10.66
G1 X49.367 Y-124.131 Z-10.664
G1 X49.266 Y-124.215 Z-10.668
G1 X49.176 Y-124.31 Z-10.671
G1 X49.098 Y-124.415 Z-10.675
G1 X49.034 Y-124.529 Z-10.679
G1 X48.983 Y-124.65 Z-10.683
G1 X48.948 Y-124.777 Z-10.686
G1 X48.929 Y-124.906 Z-10.69
G1 X48.926 Y-125.037 Z-10.694
G1 X48.938 Y-125.168 Z-10.698
G1 X48.966 Y-125.296 Z-10.702
G1 X49.01 Y-125.419 Z-10.705
G1 X49.069 Y-125.537 Z-10.709
G1 X49.141 Y-125.646 Z-10.713
G1 X49.226 Y-125.746 Z-10.717
G1 X49.322 Y-125.834 Z-10.72
G1 X49.429 Y-125.911 Z-10.724
G1 X49.544 Y-125.973 Z-10.728
G1 X49.666 Y-126.022 Z-10.732
G1 X49.793 Y-126.055 Z-10.735
G1 X49.923 Y-126.072 Z-10.739
G1 X50.054 Y-126.074 Z-10.743
G1 X50.184 Y-126.059 Z-10.747
G1 X50.311 Y-126.029 Z-10.75
G1 X50.434 Y-125.983 Z-10.754
G1 X50.551 Y-125.923 Z-10.758
G1 X50.659 Y-125.849 Z-10.762
G1 X50.758 Y-125.763 Z-10.765
G1 X50.845 Y-125.665 Z-10.769
G1 X50.919 Y-125.557 Z-10.773
G1 X50.98 Y-125.441 Z-10.777
G1 X51.027 Y-125.318 Z-10.78
G1 X51.058 Y-125.191 Z-10.784
G1 X51.073 Y-125.061 Z-10.788
G1 Y-124.93 Z-10.792
G1 X51.056 Y-124.8 Z-10.795
G1 X51.024 Y-124.673 Z-10.799
G1 X50.977 Y-124.551 Z-10.803
G1 X50.915 Y-124.435 Z-10.807
G1 X50.839 Y-124.328 Z-10.81
G1 X50.751 Y-124.231 Z-10.814
G1 X50.652 Y-124.145 Z-10.818
G1 X50.543 Y-124.072 Z-10.822
G1 X50.426 Y-124.013 Z-10.825
G1 X50.303 Y-123.969 Z-10.829
G1 X50.175 Y-123.939 Z-10.833
G1 X50.045 Y-123.926 Z-10.837
G1 X49.914 Y-123.928 Z-10.84
G1 X49.784 Y-123.947 Z-10.844
G1 X49.657 Y-123.981 Z-10.848
G1 X49.536 Y-124.03 Z-10.852
G1 X49.421 Y-124.094 Z-10.855
G1 X49.315 Y-124.171 Z-10.859
G1 X49.22 Y-124.261 Z-10.863
G1 X49.135 Y-124.361 Z-10.867
G1 X49.064 Y-124.471 Z-10.87
G1 X49.007 Y-124.589 Z-10.874
G1 X48.964 Y-124.713 Z-10.878
G1 X48.937 Y-124.841 Z-10.882
G1 X48.925 Y-124.972 Z-10.885
G1 X48.93 Y-125.103 Z-10.889
G1 X48.95 Y-125.232 Z-10.893
G1 X48.986 Y-125.358 Z-10.897
G1 X49.038 Y-125.479 Z-10.9
G1 X49.103 Y-125.593 Z-10.904
G1 X49.182 Y-125.697 Z-10.908
G1 X49.273 Y-125.792 Z-10.912
G1 X49.375 Y-125.874 Z-10.915
G1 X49.486 Y-125.944 Z-10.919
G1 X49.604 Y-126 Z-10.923
G1 X49.729 Y-126.04 Z-10.927
G1 X49.857 Y-126.066 Z-10.93
G1 X49.988 Y-126.075 Z-10.934
G1 X50.119 Y-126.068 Z-10.938
G1 X50.248 Y-126.046 Z-10.942
G1 X50.374 Y-126.008 Z-10.945
G1 X50.494 Y-125.955 Z-10.949
G1 X50.606 Y-125.888 Z-10.953
G1 X50.71 Y-125.807 Z-10.957
G1 X50.803 Y-125.715 Z-10.96
G1 X50.884 Y-125.612 Z-10.964
G1 X50.952 Y-125.5 Z-10.968
G1 X51.005 Y-125.38 Z-10.972
G1 X51.044 Y-125.255 Z-10.975
G1 X51.068 Y-125.126 Z-10.979
G1 X51.075 Y-124.995 Z-10.983
G1 X51.066 Y-124.865 Z-10.987
G1 X51.042 Y-124.736 Z-10.99
G1 X51.002 Y-124.611 Z-10.994
G1 X50.947 Y-124.492 Z-10.998
G1 X50.878 Y-124.38 Z-11.002
G1 X50.797 Y-124.278 Z-11.005
G1 X50.703 Y-124.186 Z-11.009
G1 X50.598 Y-124.107 Z-11.013
G1 X50.485 Y-124.041 Z-11.017
G1 X50.365 Y-123.989 Z-11.02
G1 X50.239 Y-123.952 Z-11.024
G1 X50.11 Y-123.931 Z-11.028
G1 X49.979 Y-123.925 Z-11.032
G1 X49.848 Y-123.936 Z-11.036
G1 X49.72 Y-123.962 Z-11.039
G1 X49.596 Y-124.004 Z-11.043
G1 X49.477 Y-124.061 Z-11.047
G1 X49.367 Y-124.131 Z-11.051
G1 X49.266 Y-124.215 Z-11.054
G1 X49.176 Y-124.31 Z-11.058
G1 X49.098 Y-124.415 Z-11.062
G1 X49.034 Y-124.529 Z-11.066
G1 X48.983 Y-124.65 Z-11.069
G1 X48.948 Y-124.777 Z-11.073
G1 X48.929 Y-124.906 Z-11.077
G1 X48.926 Y-125.037 Z-11.081
G1 X48.938 Y-125.168 Z-11.084
G1 X48.967 Y-125.296 Z-11.088
G1 X49.01 Y-125.419 Z-11.092
G1 X49.069 Y-125.537 Z-11.096
G1 X49.141 Y-125.646 Z-11.099
G1 X49.226 Y-125.746 Z-11.103
G1 X49.322 Y-125.835 Z-11.107
G1 X49.429 Y-125.911 Z-11.111
G1 X49.544 Y-125.974 Z-11.114
G1 X49.666 Y-126.022 Z-11.118
G1 X49.793 Y-126.055 Z-11.122
G1 X49.923 Y-126.072 Z-11.126
G1 X50.054 Y-126.074 Z-11.129
G1 X50.184 Y-126.059 Z-11.133
G1 X50.312 Y-126.029 Z-11.137
G1 X50.435 Y-125.983 Z-11.141
G1 X50.551 Y-125.923 Z-11.144
G1 X50.659 Y-125.849 Z-11.148
G1 X50.758 Y-125.763 Z-11.152
G1 X50.845 Y-125.665 Z-11.156
G1 X50.919 Y-125.557 Z-11.159
G1 X50.98 Y-125.441 Z-11.163
G1 X51.027 Y-125.318 Z-11.167
G1 X51.058 Y-125.191 Z-11.171
G1 X51.073 Y-125.061 Z-11.174
G1 Y-124.93 Z-11.178
G1 X51.056 Y-124.8 Z-11.182
G1 X51.024 Y-124.673 Z-11.186
G1 X50.977 Y-124.551 Z-11.189
G1 X50.915 Y-124.435 Z-11.193
G1 X50.839 Y-124.328 Z-11.197
G1 X50.751 Y-124.231 Z-11.201
G1 X50.652 Y-124.145 Z-11.204
G1 X50.543 Y-124.072 Z-11.208
G1 X50.426 Y-124.013 Z-11.212
G1 X50.303 Y-123.968 Z-11.216
G1 X50.175 Y-123.939 Z-11.219
G1 X50.044 Y-123.926 Z-11.223
G1 X49.913 Y-123.928 Z-11.227
G1 X49.784 Y-123.947 Z-11.231
G1 X49.657 Y-123.981 Z-11.234
G1 X49.536 Y-124.03 Z-11.238
G1 X49.421 Y-124.094 Z-11.242
G1 X49.315 Y-124.171 Z-11.246
G1 X49.219 Y-124.261 Z-11.249
G1 X49.135 Y-124.361 Z-11.253
G1 X49.064 Y-124.471 Z-11.257
G1 X49.007 Y-124.589 Z-11.261
G1 X48.964 Y-124.713 Z-11.264
G1 X48.937 Y-124.841 Z-11.268
G1 X48.925 Y-124.972 Z-11.272
G1 X48.93 Y-125.103 Z-11.276
G1 X48.95 Y-125.232 Z-11.279
G1 X48.987 Y-125.358 Z-11.283
G1 X49.038 Y-125.479 Z-11.287
G1 X49.103 Y-125.593 Z-11.291
G1 X49.182 Y-125.697 Z-11.294
G1 X49.273 Y-125.792 Z-11.298
G1 X49.375 Y-125.874 Z-11.302
G1 X49.486 Y-125.944 Z-11.306
G1 X49.604 Y-126 Z-11.309
G1 X49.729 Y-126.04 Z-11.313
G1 X49.858 Y-126.066 Z-11.317
G1 X49.988 Y-126.075 Z-11.321
G1 X50.119 Y-126.068 Z-11.324
G1 X50.248 Y-126.046 Z-11.328
G1 X50.374 Y-126.008 Z-11.332
G1 X50.494 Y-125.955 Z-11.336
G1 X50.606 Y-125.888 Z-11.339
G1 X50.71 Y-125.807 Z-11.343
G1 X50.803 Y-125.715 Z-11.347
G1 X50.884 Y-125.612 Z-11.351
G1 X50.952 Y-125.5 Z-11.355
G1 X51.005 Y-125.38 Z-11.358
